CinemaCameraBeautifiers/bmpcc6k_DebeautifiedWithoutMatrixRestore.cube
LUT_3D_SIZE 6
DOMAIN_MIN 0 0 0
DOMAIN_MAX 1 1 1
TITLE bmpcc6k_DebeautifiedWithoutMatrixRestore
-0.0001036859 -2.977593E-05 -0.0001283527
0.2077962 5.389636E-06 -0.0008351659
0.4104961 -9.699394E-05 -0.001232745
0.6053554 0.001224081 0.0001819153
0.8101818 -0.0006084549 -0.001000034
0.9999681 2.723432E-05 5.226664E-06
0.0008301004 0.1997484 -0.0004189023
0.2023338 0.1990198 0.0005861532
0.4027815 0.1999584 0.0006371642
0.6022456 0.1999604 -0.0007491746
0.800072 0.1999075 2.745811E-05
0.9916155 0.201001 0.0005102343
0.001719079 0.398298 6.462567E-05
0.2011049 0.398404 0.0004107117
0.4005207 0.3983301 0.001579398
0.6003164 0.3999542 -0.0002413957
0.7978193 0.4004423 0.001791515
0.9861431 0.4022188 0.004338952
0.002594776 0.5986769 -0.0001803683
0.2021571 0.5953901 0.001793466
0.400006 0.6000109 -1.656996E-05
0.5988222 0.6001384 0.0009702294
0.7961561 0.6009897 0.003071528
0.9876256 0.6027126 0.005394704
0.001905079 0.8032707 -0.0007421086
0.1998958 0.80015 -9.4812E-05
0.398494 0.8014808 0.002068854
0.5976887 0.8068724 -0.002922532
0.7952209 0.8029327 0.003735852
0.9875224 0.8057403 0.002166749
-5.403226E-06 1.000008 -1.944471E-06
0.2005812 0.9898446 0.00418167
0.3981332 0.9943748 0.004459667
0.5955096 0.9967695 0.004524246
0.7955985 1.000012 -0.0003448992
0.9883713 0.9991632 0.001831635
-0.0004290675 0.001392277 0.2049611
0.203997 -0.0007104132 0.2010408
0.4026196 0.00228607 0.1998756
0.6028552 2.512357E-06 0.199492
0.8000191 6.500908E-05 0.1998735
0.9898548 0.001203501 0.2026108
-0.0001387496 0.2002884 0.2019779
0.2014171 0.2004248 0.1991285
0.4016227 0.2006117 0.1991652
0.5999828 0.2000169 0.1999841
0.7999859 0.1996765 0.201016
0.9953736 0.1995142 0.2026339
-0.0002362191 0.3994812 0.20191
0.2005837 0.4000486 0.1997431
0.3999915 0.4 0.2000158
0.5968282 0.4007398 0.2004194
0.7968537 0.4012842 0.1998716
0.9920388 0.4014694 0.2021019
0.0002588365 0.598422 0.2012449
0.1999747 0.6000169 0.199938
0.3984307 0.6012577 0.1999337
0.5961164 0.6015012 0.2002715
0.794246 0.6029742 0.1992787
0.9861584 0.6034878 0.2023553
-9.384065E-06 0.8000157 0.1999721
0.1981796 0.8019906 0.1979475
0.3989554 0.8039388 0.1985579
0.5950253 0.8054538 0.1986723
0.7929707 0.8053396 0.1988895
0.9862509 0.8062711 0.2005022
0.0009643633 0.9906915 0.2002545
0.1993425 0.9934955 0.2011032
0.3982085 0.9964115 0.2000219
0.5942813 0.9972503 0.1993281
0.791028 0.9980917 0.1999247
0.9831776 1.000525 0.2024892
-0.0007404701 -0.0002879127 0.4096154
0.2021059 -0.0009220226 0.403463
0.4043414 -0.00345916 0.4018316
0.6005849 -0.0003828353 0.3999313
0.7949013 0.003282276 0.3989095
0.9859165 0.004950004 0.4010532
0.000449314 0.2002061 0.4002464
0.2006288 0.2004171 0.3999154
0.3999783 0.2000186 0.3999336
0.5972362 0.2000787 0.4011583
0.7971864 0.1998953 0.4004313
0.993986 0.1979832 0.4027879
-0.0004118933 0.3994583 0.401614
0.1999911 0.400004 0.3999945
0.3987963 0.400558 0.3999922
0.5968204 0.4006957 0.3998728
0.7948624 0.4017534 0.3982153
0.9873968 0.4023778 0.4003148
-4.969846E-06 0.6000095 0.3999897
0.1980234 0.6008091 0.4011843
0.3986036 0.6015422 0.3990972
0.5955007 0.6022314 0.398263
0.7927955 0.6031072 0.3986936
0.9876701 0.6045613 0.399717
0.0002696177 0.8011017 0.4002788
0.1964589 0.8039473 0.398966
0.3978913 0.804616 0.397799
0.594942 0.8048034 0.3980764
0.7920172 0.805649 0.3966484
0.9857092 0.807498 0.3981744
0.0005531186 0.9932207 0.398897
0.1966491 0.9959867 0.3982446
0.3986492 0.9956689 0.4006105
0.5935962 0.9975567 0.4007055
0.7918092 0.9991164 0.3974556
0.9837255 1.000289 0.3990896
0.0008521749 0.001623033 0.6042168
0.2012169 -9.941685E-05 0.6025912
0.3999818 3.825191E-06 0.6000177
0.6019503 -0.005182795 0.6014042
0.7967025 0.002189321 0.5975848
0.9864596 0.005235625 0.5979356
-0.0003791649 0.1999625 0.6009698
0.1999715 0.2000052 0.5999821
0.3988451 0.2004037 0.5982462
0.5951924 0.2002725 0.5973936
0.7939298 0.2003093 0.5988874
0.9871384 0.200746 0.6022514
3.741137E-05 0.3999822 0.5999835
0.1980097 0.4002206 0.6007855
0.3981683 0.4012345 0.597342
0.5947253 0.4014417 0.597658
0.7926353 0.4008738 0.6016234
0.9865158 0.4022006 0.60075
-0.001781585 0.6008734 0.6018265
0.197069 0.6023815 0.5968429
0.3975192 0.6023453 0.5976728
0.5941356 0.6026306 0.6009117
0.79137 0.6024897 0.601303
0.984419 0.6035993 0.6016833
-2.118225E-05 0.8030123 0.5987582
0.1959811 0.8041584 0.5976093
0.3974994 0.8034391 0.6013168
0.5942 0.8036926 0.5968783
0.790044 0.805434 0.5986568
0.9831592 0.8078796 0.5999668
7.70583E-05 0.9951649 0.6007301
0.1932847 0.9977461 0.5990891
0.3968739 0.996383 0.6010507
0.5937251 0.997667 0.6017318
0.7904059 0.9979977 0.6023649
0.9835618 0.9997662 0.6036414
-0.001193965 -0.0007288657 0.8140645
0.1999364 -5.009452E-05 0.8001094
0.3990959 -0.0005672424 0.7971731
0.5976213 -0.0009275182 0.8022013
0.8001401 -0.00623137 0.8005942
0.9844382 0.003678332 0.8016534
1.538564E-05 0.1999673 0.8000306
0.1975683 0.1997457 0.8018081
0.3993325 0.1989534 0.8033589
0.5953743 0.1993938 0.8008416
0.7907748 0.1999765 0.7994152
0.9844907 0.2002704 0.805071
0.001016812 0.3998542 0.7992434
0.1968171 0.400746 0.8016126
0.3982672 0.4006956 0.8002217
0.5933389 0.4008323 0.8019079
0.7921985 0.3999731 0.8045572
0.985035 0.4013647 0.8046958
0.001862398 0.5997136 0.8026611
0.1958625 0.6016873 0.8004925
0.3969258 0.6015121 0.8013715
0.5927526 0.6018747 0.7995348
0.7896377 0.6028244 0.7987332
0.9843291 0.6032027 0.8069727
-0.001224865 0.8029127 0.8040794
0.1937467 0.8043193 0.80145
0.3978106 0.8028253 0.7998214
0.5954425 0.8041239 0.8002529
0.7909228 0.8055931 0.8023717
0.9829822 0.8079408 0.8017393
0.0008353419 0.9945393 0.8034518
0.1918569 0.9979444 0.7999273
0.3954619 0.9972352 0.8006057
0.5937486 0.996733 0.8039803
0.7889974 0.9987512 0.80244
0.9836895 0.9997774 0.8073965
1.152316E-05 3.491015E-05 0.9999517
0.195868 -0.007051097 1.00079
0.4002005 -0.002064758 0.9949581
0.5970436 -0.001010122 0.9846982
0.7945516 -0.0007668 0.9860058
0.9907915 -0.007560605 0.9913822
0.001109119 0.1982946 0.990631
0.1971009 0.1991085 0.9901693
0.3994118 0.1982876 0.9914585
0.5953821 0.1991036 0.9864626
0.7928174 0.1984576 0.9893428
0.9825137 0.1988888 0.9961749
0.002777395 0.3995355 0.9863781
0.1955366 0.399578 0.9902915
0.3976507 0.3996381 0.989462
0.5941459 0.3997301 0.9883921
0.791255 0.3998715 0.98895
0.984453 0.3996236 0.9966019
0.004755846 0.6006154 0.9832138
0.1941547 0.601126 0.9894019
0.3963441 0.6006348 0.9911965
0.5942034 0.6024601 0.9861162
0.7910275 0.6026155 0.985177
0.982662 0.602841 0.9936047
0.001648276 0.801802 0.9862784
0.192515 0.804126 0.9881955
0.3956227 0.8040603 0.9848887
0.5943416 0.8030351 0.9897977
0.7902115 0.8040273 0.9917662
0.9823889 0.8081127 0.988099
-0.003305964 0.9955652 0.993883
0.1933525 0.9958094 0.992075
0.3947402 0.9969642 0.9860308
0.5921614 0.996173 0.9913942
0.7917686 0.9979495 0.9917518
0.9836403 1.001168 0.9974257
