CinemaCameraBeautifiers/bmpcc6k_Debeautified.cube
LUT_3D_SIZE 16
DOMAIN_MIN 0 0 0
DOMAIN_MAX 1 1 1
TITLE bmpcc6k_Debeautified
-0.0002256887 -0.0001030263 -0.0002623141
0.1530043 -0.0009637713 0.003211677
0.2904775 -0.00175876 0.006211629
0.4299088 -0.003366492 0.00787823
0.5612372 -0.002274047 0.01212594
0.703348 -0.004485763 0.0141689
0.849228 -0.006724528 0.01634138
0.9860104 -0.006973129 0.02019321
1.119957 -0.006698127 0.02446786
1.252887 -0.006458391 0.02837197
1.404284 -0.01214245 0.02733456
1.536317 -0.01323743 0.03038733
1.675916 -0.01362218 0.03491219
1.81342 -0.01410118 0.03866466
1.950729 -0.01448856 0.04253717
2.068806 -0.01480975 0.04571924
0.02772827 0.1340758 0.01771495
0.1762604 0.1319246 0.02177097
0.3166071 0.130757 0.02317069
0.4484816 0.1308248 0.02780693
0.5877573 0.1292382 0.03020394
0.7299806 0.1264022 0.03155822
0.8679601 0.1254347 0.03505554
0.9985797 0.1266439 0.04081352
1.143022 0.1246872 0.04220774
1.266928 0.1266704 0.04931155
1.417645 0.1208554 0.04677993
1.551456 0.1198105 0.04855883
1.683323 0.1214311 0.05417962
1.820689 0.120531 0.05578132
1.958792 0.1206285 0.06144441
2.097938 0.1167528 0.05840311
0.05486829 0.2674479 0.03727723
0.2025716 0.2660068 0.04150705
0.3387836 0.2648758 0.04420325
0.4746049 0.2647553 0.04829725
0.6120343 0.2645269 0.04945146
0.7527955 0.2631712 0.05220814
0.8894877 0.2631152 0.05760983
1.027944 0.2622173 0.05912219
1.163209 0.2616059 0.06236346
1.302621 0.2597399 0.06546062
1.444166 0.2566803 0.06389831
1.583026 0.2551245 0.06768539
1.712891 0.2564277 0.0740124
1.846291 0.257227 0.07822021
1.979912 0.257883 0.0825267
2.0982 0.2588641 0.08722166
0.08192203 0.4043383 0.05677744
0.2297032 0.4010946 0.06070949
0.3656701 0.4020521 0.0632474
0.4985065 0.4002137 0.06772652
0.6369528 0.4002355 0.06994631
0.7784153 0.3991869 0.07217558
0.9135816 0.3991519 0.07725692
1.049627 0.3986032 0.0811761
1.181053 0.3989584 0.08815378
1.326254 0.3957123 0.08368412
1.469089 0.3927195 0.08539092
1.600531 0.3938112 0.0898935
1.735504 0.3929321 0.09421674
1.878803 0.3910098 0.09607995
2.016158 0.3897564 0.09822664
2.132217 0.3924651 0.1042224
0.1086694 0.5393655 0.07577211
0.2553426 0.5344461 0.08014207
0.3908781 0.5350994 0.08388515
0.5277847 0.5370924 0.08314203
0.6616779 0.5341808 0.08892161
0.8003361 0.5330092 0.09447969
0.9382264 0.5329785 0.09816504
1.077279 0.5318365 0.1009572
1.215035 0.5318078 0.101034
1.353052 0.5302213 0.1026353
1.492594 0.5284327 0.1056672
1.624423 0.528886 0.1103756
1.755118 0.5297387 0.1155612
1.893681 0.52903 0.1198423
2.034471 0.527915 0.1238121
2.149971 0.5301979 0.1290857
0.1366809 0.6710171 0.09580167
0.2828866 0.6662872 0.09954475
0.4164366 0.6695539 0.1024961
0.5516022 0.67079 0.1046582
0.6917041 0.6703703 0.1052553
0.8253608 0.6669185 0.1136651
0.9609885 0.6671606 0.1185613
1.101019 0.6660057 0.1223415
1.239341 0.6662439 0.1222335
1.379618 0.6649863 0.1224209
1.513156 0.6649523 0.1265733
1.651926 0.6635517 0.1294663
1.791228 0.6625925 0.1328193
1.925614 0.6626343 0.1377922
2.059657 0.6636884 0.1445598
2.176043 0.6666782 0.1498524
0.1634791 0.8065594 0.1149628
0.305178 0.8053353 0.1150988
0.4415285 0.8029228 0.1214797
0.5760213 0.8039291 0.1247772
0.7150428 0.8036945 0.1275999
0.8550885 0.803012 0.1297268
0.9885478 0.8012179 0.1361369
1.122557 0.802044 0.1405794
1.263616 0.8013856 0.1413946
1.402561 0.8009083 0.1422039
1.538365 0.8001177 0.1465719
1.678104 0.7997501 0.1491753
1.811351 0.7996616 0.1553147
1.947237 0.7997405 0.1567417
2.083411 0.7997423 0.1659566
2.201664 0.8013377 0.1693753
0.190741 0.9419028 0.1338434
0.3330079 0.9372202 0.1353432
0.4692827 0.9351014 0.1418325
0.6024334 0.9388521 0.1442228
0.7398946 0.9388602 0.147501
0.8803543 0.9395216 0.1477419
1.016635 0.9370764 0.1551669
1.152515 0.9361513 0.1566966
1.291208 0.9370075 0.1585384
1.424515 0.9354168 0.1654614
1.564958 0.9350414 0.1673435
1.696181 0.9361712 0.1734559
1.840159 0.9342338 0.1750318
1.97344 0.9349144 0.1794196
2.112753 0.9349316 0.1837022
2.230587 0.9370717 0.1871487
0.2183773 1.076644 0.1528428
0.358789 1.070858 0.1540377
0.4963365 1.068485 0.1610332
0.6287845 1.071268 0.1639879
0.7656694 1.072384 0.1676112
0.9035178 1.072336 0.1721725
1.046704 1.07572 0.1666111
1.179721 1.073112 0.174827
1.315953 1.071387 0.1777924
1.44793 1.071911 0.1840197
1.584144 1.071579 0.1893702
1.724868 1.070153 0.1938153
1.859973 1.071544 0.1956666
1.990726 1.072115 0.20399
2.138129 1.071069 0.2025491
2.258574 1.072542 0.212385
0.2457475 1.212234 0.1722614
0.3842422 1.20374 0.1756453
0.519826 1.205003 0.1793959
0.6572828 1.203292 0.184264
0.7929488 1.20717 0.187116
0.9309291 1.209696 0.1884103
1.068471 1.209083 0.1911263
1.210557 1.21226 0.187502
1.342194 1.208109 0.1983814
1.479839 1.206726 0.2021638
1.613388 1.206301 0.2078602
1.745779 1.207807 0.2121231
1.888425 1.206241 0.2155042
2.024061 1.206113 0.2226619
2.157325 1.208456 0.229454
2.285227 1.207684 0.2292581
0.2731649 1.347701 0.1921151
0.4129839 1.336183 0.1937508
0.5461242 1.338462 0.2002611
0.6801397 1.344298 0.2003834
0.8184216 1.344902 0.2042924
0.9572867 1.345057 0.2073367
1.095087 1.347103 0.2098424
1.231997 1.347039 0.2108608
1.371329 1.348979 0.2104517
1.50698 1.343567 0.2222036
1.641522 1.341465 0.2277258
1.77384 1.343217 0.2310357
1.9098 1.343783 0.2378568
2.048587 1.343729 0.2418158
2.183582 1.342917 0.2461333
2.317173 1.343355 0.2439306
0.3008155 1.481535 0.2140853
0.4330157 1.480885 0.2100793
0.571762 1.478112 0.2167526
0.7084883 1.479996 0.2204274
0.8461266 1.481095 0.2234543
0.9809408 1.483059 0.2272196
1.11758 1.482696 0.2318233
1.257428 1.483177 0.2339583
1.395779 1.485248 0.2323921
1.535382 1.483833 0.2362379
1.669199 1.481044 0.2457492
1.805782 1.4784 0.2513773
1.936706 1.479441 0.2571177
2.066231 1.481279 0.2632289
2.210438 1.479001 0.2660477
2.337063 1.481085 0.2630489
0.3264717 1.626358 0.2300883
0.4581915 1.619607 0.2282017
0.597284 1.617634 0.2336038
0.7348301 1.617318 0.2394937
0.8727247 1.614817 0.2462545
1.010589 1.619754 0.2479106
1.146224 1.617806 0.2531509
1.282731 1.618887 0.2568181
1.422248 1.617347 0.2594735
1.560525 1.624041 0.2541251
1.698924 1.621806 0.26017
1.830332 1.617701 0.271487
1.967569 1.615423 0.2749346
2.102444 1.614671 0.2815553
2.235328 1.617674 0.2847922
2.366551 1.617708 0.2814882
0.3533589 1.768104 0.2481866
0.4839805 1.756552 0.248558
0.6238334 1.753036 0.2557999
0.7606816 1.753702 0.2616113
0.9004115 1.754327 0.2645065
1.037585 1.753738 0.270644
1.171584 1.755745 0.2746469
1.307752 1.75662 0.2776525
1.446123 1.758979 0.2781771
1.588204 1.758353 0.2795739
1.727326 1.7626 0.2762351
1.862597 1.756583 0.2867072
1.991485 1.755152 0.2958104
2.126121 1.751882 0.3017148
2.270645 1.753623 0.2984611
2.387035 1.757427 0.3030291
0.3826378 1.899244 0.2725611
0.5126302 1.889903 0.2720662
0.6453901 1.895533 0.2749144
0.7876058 1.892625 0.2803166
0.9292182 1.888212 0.2890767
1.064553 1.891042 0.2909813
1.198339 1.896875 0.2932548
1.33348 1.89503 0.2976366
1.470365 1.897591 0.3005198
1.612234 1.896236 0.3031498
1.751801 1.896825 0.3025179
1.889896 1.900077 0.2984315
2.020922 1.894426 0.3121142
2.155082 1.893235 0.316999
2.299229 1.89238 0.3174295
2.414074 1.893895 0.3215718
0.4015078 2.025039 0.2881214
0.5370333 2.003872 0.2891807
0.6668339 2.013831 0.2905447
0.8123876 2.002918 0.3024765
0.9509724 2.006885 0.3042549
1.087069 2.007771 0.3085446
1.222913 2.009251 0.3133497
1.359649 2.008012 0.3180249
1.49277 2.011223 0.320979
1.632218 2.011188 0.3231856
1.771537 2.009535 0.3246527
1.911989 2.014206 0.3190159
2.047506 2.0131 0.3238185
2.185862 2.010565 0.3292928
2.325413 2.008824 0.3341803
2.445972 2.009266 0.3366066
-0.0003092094 0.02699951 0.141969
0.1508932 0.02285794 0.138556
0.2864702 0.02511712 0.1417434
0.4225273 0.02331634 0.1448267
0.555631 0.02363918 0.1489027
0.699538 0.01926658 0.1492667
0.8407068 0.01755777 0.1519773
0.9724178 0.01832179 0.1560191
1.108398 0.01840035 0.1585902
1.244235 0.01691861 0.1616645
1.387148 0.01177146 0.1610891
1.516839 0.01118842 0.1642582
1.658661 0.009171537 0.1664281
1.794335 0.009551937 0.1705348
1.930786 0.00925147 0.1720634
2.049811 0.009273292 0.1813406
0.02617581 0.1601929 0.1567378
0.1750817 0.1566605 0.154364
0.3131008 0.1556946 0.157847
0.4494019 0.1544322 0.1612816
0.5854487 0.1533202 0.1645745
0.7268717 0.1511643 0.1677792
0.8802783 0.1411175 0.1624903
1.029781 0.1321543 0.1570196
1.166897 0.1339014 0.16242
1.294738 0.1376926 0.1693532
1.421052 0.1410554 0.1758634
1.545999 0.1424318 0.1797323
1.675086 0.1439852 0.1838931
1.821426 0.1441687 0.1872738
1.93175 0.1511973 0.196698
2.090099 0.1409304 0.1944744
0.05343772 0.2940313 0.1743168
0.2015181 0.2921135 0.1727395
0.3378419 0.2907107 0.1753863
0.474003 0.2901611 0.1785479
0.611321 0.2895811 0.1824581
0.7511897 0.2881142 0.1847719
0.8966424 0.2846172 0.1833919
1.050021 0.2760816 0.1757661
1.174469 0.2811783 0.1860816
1.307477 0.2822389 0.1928335
1.4374 0.28371 0.1988716
1.576237 0.2811933 0.2010349
1.710773 0.2800103 0.2029113
1.857179 0.2754177 0.2024451
2.008239 0.2671973 0.1957293
2.139657 0.2638572 0.197815
0.08028365 0.4290013 0.19142
0.2282712 0.4275645 0.1908927
0.3639609 0.4272382 0.1937363
0.4983165 0.4256197 0.1968209
0.6362776 0.4247977 0.2006106
0.7748784 0.4237307 0.2038258
0.9132442 0.4229212 0.2063694
1.062982 0.4179687 0.2014613
1.199991 0.416164 0.2028414
1.332624 0.4163162 0.209131
1.46751 0.4160973 0.2143465
1.597626 0.416995 0.2200925
1.734033 0.4166062 0.2244828
1.874132 0.4158465 0.2273195
1.994649 0.420385 0.2352761
2.119227 0.4222516 0.24286
0.1067272 0.562332 0.2093786
0.2539395 0.5607717 0.2085773
0.3904197 0.56084 0.2125932
0.5240971 0.5609503 0.215514
0.6607303 0.5588921 0.219133
0.800981 0.5575101 0.2225472
0.9392266 0.5572113 0.2250516
1.075591 0.5560946 0.2284111
1.217673 0.5541675 0.2267865
1.353289 0.5528728 0.2305604
1.486524 0.5529415 0.2362077
1.624085 0.5515113 0.2379719
1.757419 0.5527747 0.2444339
1.895379 0.5529761 0.2477626
2.018908 0.5569227 0.2556978
2.156437 0.554518 0.2593141
0.1340668 0.6943396 0.2268785
0.2793736 0.6942018 0.2274169
0.4154805 0.6948314 0.230512
0.5494522 0.6945695 0.2334142
0.6880115 0.6938875 0.2371927
0.8265892 0.6923709 0.2405204
0.9640815 0.6917937 0.2438016
1.10024 0.6910046 0.2471642
1.237316 0.6903954 0.249657
1.37661 0.688923 0.2512636
1.523764 0.6863759 0.2477191
1.649629 0.688006 0.254334
1.788615 0.6882606 0.2593601
1.914728 0.6888787 0.267859
2.055105 0.6891849 0.272291
2.177578 0.6913169 0.2788961
0.1598651 0.8294804 0.2452242
0.3054777 0.8286129 0.2462699
0.4403917 0.8295889 0.2498648
0.5760954 0.8286277 0.2524459
0.7143421 0.8283827 0.2555788
0.8525971 0.8284844 0.2590472
0.9887051 0.8268879 0.2630818
1.124787 0.8267564 0.2657531
1.26391 0.8251005 0.2686851
1.407545 0.8249356 0.2641619
1.547943 0.8251687 0.2623252
1.685496 0.8226296 0.2685989
1.815918 0.8234874 0.2745112
1.95037 0.8244473 0.2832274
2.082284 0.8266439 0.2889502
2.198609 0.8287579 0.3012323
0.1858903 0.9649119 0.2634591
0.332249 0.9623668 0.2631676
0.4683621 0.9632183 0.2685849
0.6034186 0.9637085 0.2710485
0.7402586 0.9631044 0.2744268
0.8772131 0.9632885 0.2777354
1.015434 0.9626993 0.2817813
1.152496 0.9611207 0.285039
1.290115 0.961955 0.2855492
1.430558 0.9620499 0.2848907
1.581445 0.9602441 0.276028
1.724026 0.9601146 0.2756484
1.843475 0.9614487 0.2940356
1.982582 0.9579898 0.2975532
2.113506 0.959996 0.3054475
2.23848 0.9629284 0.316072
0.2139636 1.0974 0.2820717
0.3575928 1.096534 0.2819659
0.4935568 1.098125 0.2879089
0.6279616 1.098836 0.2921085
0.7655366 1.098215 0.2948482
0.9033467 1.097917 0.2983559
1.041335 1.097133 0.3012861
1.179393 1.098603 0.3035632
1.317912 1.097361 0.3055781
1.45833 1.09938 0.3030329
1.594934 1.100132 0.3023341
1.751883 1.096978 0.2893051
1.891912 1.096582 0.2909628
2.017755 1.09724 0.3081784
2.145086 1.097414 0.3238596
2.26456 1.096396 0.3335557
0.2415818 1.23039 0.3012958
0.3806228 1.234065 0.3020259
0.5211532 1.232187 0.3079334
0.655878 1.233097 0.3110592
0.7913854 1.23411 0.3135639
0.9301429 1.233132 0.3174507
1.066646 1.233214 0.3214903
1.201522 1.234752 0.3231992
1.33932 1.235952 0.3263761
1.482298 1.234391 0.3250745
1.626236 1.236177 0.3209303
1.766441 1.236507 0.3205401
1.919575 1.235274 0.3083117
2.070103 1.232556 0.3073933
2.184678 1.233106 0.3285946
2.297418 1.235195 0.3461479
0.2680431 1.365111 0.3214223
0.4082385 1.367291 0.3219705
0.5471995 1.36649 0.3273876
0.6794895 1.369855 0.3302194
0.818967 1.369237 0.3334828
0.9555492 1.370449 0.3365018
1.093635 1.368975 0.3413883
1.228381 1.369932 0.3443296
1.366677 1.370971 0.3454947
1.506126 1.371633 0.3478087
1.645317 1.3722 0.3468955
1.792336 1.374887 0.3381101
1.933479 1.375851 0.3377876
2.086989 1.372198 0.3288585
2.231611 1.368488 0.3289905
2.351891 1.368892 0.3433126
0.2944911 1.501322 0.3401214
0.4335544 1.50387 0.341548
0.571128 1.504055 0.3465503
0.7077267 1.505292 0.3496486
0.8444859 1.50813 0.3525629
0.9839684 1.508054 0.3565781
1.121256 1.507143 0.3600379
1.254164 1.507299 0.3645585
1.389189 1.508357 0.3677869
1.53277 1.509179 0.3670249
1.669278 1.510332 0.3705409
1.814327 1.51005 0.366419
1.962814 1.512594 0.3554744
2.104618 1.512634 0.3555576
2.247095 1.510871 0.3512236
2.376998 1.508382 0.3562284
0.3209611 1.637861 0.3590433
0.4599111 1.639413 0.3616628
0.5965267 1.641395 0.3657494
0.7326902 1.644265 0.3682059
0.8719832 1.646135 0.3720686
1.012097 1.64417 0.3760933
1.148005 1.645492 0.3796846
1.283472 1.643324 0.3843219
1.421304 1.643668 0.3881784
1.556935 1.646257 0.3895876
1.699518 1.646642 0.3894007
1.836381 1.646499 0.3918684
1.977359 1.647983 0.3865695
2.128305 1.650288 0.3739406
2.267123 1.652289 0.3734419
2.38827 1.653086 0.3794363
0.3475885 1.775139 0.3785712
0.4852878 1.777955 0.3814574
0.6201027 1.78451 0.3822686
0.7614421 1.783798 0.3863014
0.898709 1.784437 0.3910165
1.038359 1.785972 0.3927104
1.171134 1.785661 0.3987319
1.312334 1.784396 0.4019157
1.448336 1.781524 0.4082623
1.583573 1.782959 0.411147
1.720014 1.785027 0.4114566
1.857332 1.785189 0.411355
2.000184 1.78489 0.4134377
2.139103 1.78644 0.4073469
2.297638 1.788928 0.3942451
2.423496 1.791456 0.3952663
0.3738203 1.915015 0.3977987
0.5084908 1.922843 0.3968163
0.6466428 1.924792 0.4002414
0.7842848 1.926831 0.4041461
0.927728 1.923908 0.4082806
1.064784 1.925904 0.4122522
1.200883 1.923634 0.418205
1.340459 1.923127 0.4218254
1.473616 1.922341 0.4266582
1.610805 1.919944 0.4314411
1.744583 1.921081 0.4341028
1.886117 1.921999 0.4327937
2.025172 1.922377 0.4328525
2.163987 1.923464 0.4354827
2.314086 1.924279 0.4270519
2.446572 1.928633 0.4211533
0.3944086 2.034692 0.4148626
0.5269935 2.046786 0.4117847
0.6659606 2.044523 0.4161366
0.8074284 2.04263 0.4212629
0.9469816 2.046387 0.4233439
1.08447 2.044113 0.4296228
1.222862 2.044257 0.4323155
1.359104 2.041312 0.4394863
1.496847 2.039817 0.4416398
1.628485 2.035877 0.4494367
1.764363 2.037708 0.4520597
1.903164 2.036958 0.4536912
2.049353 2.037288 0.4518142
2.184567 2.038724 0.4528069
2.331068 2.038355 0.4549611
2.460954 2.041482 0.4488692
-0.0006882604 0.05062765 0.2704395
0.1490774 0.0476732 0.2705877
0.2869106 0.04399794 0.2689039
0.4204376 0.0465873 0.2707475
0.555074 0.04842494 0.2741047
0.6981436 0.04245248 0.2758204
0.8341411 0.04308783 0.2798927
0.9727673 0.04206253 0.2829124
1.107127 0.04172781 0.2873128
1.245608 0.03865859 0.2884069
1.387547 0.03419399 0.2885088
1.516223 0.03495561 0.2934898
1.665121 0.03014118 0.2931961
1.792127 0.03317259 0.2982366
1.926096 0.03277535 0.3015048
2.055832 0.03096534 0.3073235
0.02644534 0.1829083 0.2820388
0.174858 0.1804382 0.2852538
0.3107013 0.1783902 0.2852074
0.4459917 0.1776437 0.2878188
0.5842381 0.1763959 0.2912689
0.7258191 0.1729009 0.2934926
0.874778 0.1644527 0.2934889
1.018874 0.1593117 0.2938052
1.132984 0.170002 0.3055865
1.265798 0.1742934 0.3108398
1.41016 0.1716529 0.3107912
1.543176 0.1702978 0.3127577
1.681051 0.1689187 0.3144106
1.825998 0.1667927 0.3150019
1.958766 0.1688316 0.3213186
2.077927 0.1712206 0.3278176
0.0523994 0.3179322 0.3008966
0.2013472 0.3163143 0.3034096
0.336129 0.3144708 0.3016181
0.4718345 0.3137042 0.3058595
0.6093712 0.3132115 0.3078647
0.7494529 0.3119655 0.3116308
0.8873122 0.3105925 0.3154838
1.024386 0.3098186 0.3181078
1.162744 0.3084462 0.3213746
1.300097 0.3068951 0.3241058
1.438398 0.3049455 0.3272967
1.573787 0.3029856 0.328517
1.763367 0.2763515 0.306911
1.9356 0.2584533 0.2932929
2.054936 0.2640654 0.3018735
2.164323 0.2700687 0.3136883
0.08055496 0.4516919 0.318512
0.2273327 0.4517406 0.321538
0.3623874 0.4501756 0.3200541
0.4978893 0.4485248 0.3234593
0.635321 0.4477961 0.3260682
0.7753668 0.4469724 0.3285601
0.9123333 0.445896 0.3322579
1.049571 0.4449766 0.3365639
1.186909 0.4439403 0.3403567
1.322362 0.4428401 0.3436432
1.458798 0.4410928 0.3466879
1.607114 0.4354361 0.3430602
1.759206 0.4292075 0.3365814
1.913138 0.4210851 0.3293006
2.047498 0.4196966 0.3344269
2.168695 0.421347 0.342138
0.1065181 0.5860733 0.3375022
0.2526988 0.5854135 0.3401244
0.3888723 0.5838834 0.3393108
0.523536 0.583374 0.3425104
0.659798 0.5820118 0.3455385
0.8006083 0.5810623 0.3482687
0.938054 0.580097 0.352207
1.075154 0.5794384 0.3560411
1.211594 0.5786601 0.3586471
1.347726 0.5770389 0.362793
1.486454 0.5758559 0.3622908
1.629676 0.5735419 0.364112
1.774834 0.5692639 0.3616058
1.938389 0.5573733 0.3485824
2.086635 0.5516534 0.3434578
2.204344 0.5569807 0.3577918
0.1336498 0.719218 0.3563772
0.2781903 0.7195425 0.3586532
0.4155167 0.7174466 0.3586317
0.5494836 0.7180377 0.3633255
0.6858151 0.7174476 0.3648558
0.8242851 0.7154426 0.3681224
0.9635262 0.7151493 0.3716988
1.097898 0.714639 0.3749738
1.236418 0.7130826 0.3790726
1.373099 0.7128763 0.3810742
1.510541 0.7115501 0.3853763
1.653381 0.709317 0.3838136
1.798808 0.7057118 0.3794093
1.939545 0.7038254 0.3809235
2.088005 0.6987348 0.3776708
2.221753 0.694603 0.3761815
0.1597985 0.8535502 0.3763384
0.3054672 0.8522142 0.3783914
0.4424701 0.8516752 0.3796194
0.5755304 0.8524848 0.3817043
0.7117146 0.8520755 0.385194
0.8510585 0.8516507 0.3888815
0.9872133 0.8494313 0.3919489
1.125245 0.8490906 0.3952205
1.260045 0.8488887 0.3978595
1.396681 0.8484733 0.4017691
1.534394 0.8475621 0.4040835
1.669117 0.8472779 0.4072191
1.806038 0.8468114 0.4115245
1.956925 0.8427013 0.4051387
2.111107 0.837756 0.3991855
2.241389 0.8371615 0.4020963
0.186768 0.9875811 0.3946145
0.3296828 0.9881417 0.3976148
0.4666283 0.9868259 0.3972687
0.6020569 0.98738 0.4010905
0.7374376 0.9869859 0.4049964
0.8773135 0.9860487 0.4084571
1.014112 0.9850741 0.4113915
1.148911 0.9846989 0.4141128
1.288711 0.9836516 0.4191056
1.424922 0.9834946 0.4206765
1.557618 0.9834591 0.4245959
1.695198 0.9833685 0.4261237
1.833315 0.9816545 0.4303852
1.971592 0.981638 0.4344896
2.120286 0.9799165 0.4330299
2.249436 0.977989 0.4336438
0.2128756 1.123171 0.4145855
0.3569806 1.120556 0.4191491
0.492065 1.121002 0.4161932
0.6277616 1.122143 0.4215751
0.7650133 1.122236 0.4246831
0.9029453 1.121064 0.4275721
1.040574 1.121245 0.4314835
1.175624 1.12079 0.4344596
1.312683 1.119966 0.4369674
1.451759 1.118852 0.4414507
1.584839 1.118772 0.4437379
1.721581 1.118625 0.4464987
1.858681 1.118741 0.450537
1.997761 1.118433 0.4526494
2.137904 1.116863 0.455477
2.260275 1.118139 0.4620991
0.2411571 1.255397 0.4322964
0.3803496 1.258121 0.4373347
0.5192882 1.254917 0.435956
0.6556983 1.257311 0.4416527
0.7917757 1.257054 0.4437384
0.927378 1.257318 0.4468953
1.067689 1.256571 0.4508764
1.201232 1.257049 0.4530439
1.336019 1.257422 0.456708
1.472951 1.256328 0.4609088
1.614316 1.254853 0.4630666
1.752493 1.254164 0.4661946
1.890608 1.253898 0.4708768
2.023192 1.254499 0.4719769
2.161153 1.253406 0.4744901
2.284015 1.255139 0.481643
0.2666779 1.392453 0.4513271
0.4072923 1.391897 0.4556098
0.545067 1.390196 0.4570043
0.6806629 1.393038 0.459856
0.8194308 1.392058 0.4630341
0.958258 1.391967 0.466563
1.093521 1.392319 0.4687471
1.227738 1.393608 0.4721195
1.363417 1.392443 0.4763885
1.500582 1.393439 0.4785095
1.639418 1.392009 0.4838884
1.777323 1.391279 0.4849674
1.910361 1.391286 0.488442
2.047478 1.389725 0.4930433
2.188701 1.388919 0.4949709
2.310851 1.390151 0.502215
0.2923185 1.530118 0.4697145
0.4335245 1.52733 0.4753359
0.5694005 1.529099 0.4759125
0.7073066 1.528844 0.4807321
0.8440061 1.530643 0.4823312
0.9814317 1.530763 0.4847809
1.118622 1.529202 0.489163
1.256588 1.52932 0.4924214
1.390839 1.529934 0.4944619
1.525327 1.530716 0.4992908
1.668159 1.530185 0.5014627
1.805771 1.527265 0.5055215
1.939864 1.527728 0.5088483
2.071801 1.527945 0.5103466
2.211949 1.527106 0.5142492
2.33415 1.528298 0.5205652
0.3191559 1.666415 0.4877805
0.4583917 1.66503 0.4922416
0.5976997 1.663095 0.495711
0.7355038 1.66526 0.4982969
0.871475 1.666544 0.502097
1.008783 1.667836 0.5039249
1.145077 1.666374 0.5071006
1.280615 1.666518 0.5116714
1.417768 1.667289 0.5144572
1.55608 1.666153 0.5183083
1.688624 1.66758 0.5203839
1.825091 1.666904 0.5253234
1.965038 1.664738 0.5264939
2.101022 1.664549 0.5301465
2.241027 1.663576 0.5348262
2.362535 1.664335 0.5407954
0.3471721 1.80101 0.5084176
0.4830472 1.804523 0.5132504
0.6233492 1.801031 0.51337
0.7590854 1.803989 0.5188311
0.9012082 1.801926 0.5219517
1.033883 1.805954 0.5251999
1.172694 1.804434 0.526428
1.3085 1.804165 0.5309494
1.443826 1.805109 0.5344709
1.579424 1.804206 0.5366617
1.716851 1.803232 0.5400727
1.855305 1.80307 0.5434927
1.990238 1.80454 0.5459328
2.127771 1.801539 0.5500922
2.265737 1.801367 0.5535958
2.387363 1.803683 0.5602471
0.3750542 1.936908 0.5259741
0.5098441 1.942928 0.5334976
0.644748 1.941994 0.5318148
0.7900704 1.938047 0.5389335
0.9250744 1.942867 0.5417346
1.063983 1.941192 0.5454672
1.198871 1.944206 0.5464547
1.332107 1.943535 0.5512927
1.47031 1.941373 0.55387
1.606563 1.941765 0.5568669
1.743114 1.940474 0.5598914
1.876886 1.941152 0.5632313
2.011143 1.943299 0.5653419
2.154016 1.941175 0.5695544
2.289693 1.939983 0.5734311
2.413279 1.942042 0.5793872
0.3980114 2.052085 0.5435131
0.5341036 2.055727 0.5513059
0.6702109 2.054562 0.5501725
0.8126396 2.05432 0.5557315
0.9510014 2.056677 0.5588944
1.085138 2.059031 0.5623921
1.22384 2.057703 0.5657969
1.359126 2.056097 0.5689911
1.495059 2.055256 0.5706207
1.631415 2.055938 0.5755507
1.763315 2.056586 0.5765871
1.900077 2.05618 0.5808339
2.034447 2.056537 0.5836578
2.175318 2.057923 0.5858726
2.315351 2.056973 0.5901693
2.437807 2.057385 0.5967389
-0.001571807 0.07352008 0.3979935
0.1478628 0.06990277 0.4006963
0.284642 0.06930071 0.3991964
0.4205368 0.06487065 0.3991252
0.5570998 0.06754737 0.4000471
0.6980803 0.06567895 0.4024911
0.8326698 0.06758375 0.4068059
0.9701982 0.06635643 0.408758
1.102534 0.06630807 0.4130946
1.246015 0.05985025 0.4145549
1.383822 0.05720878 0.416966
1.519272 0.05795461 0.4209481
1.653942 0.05717718 0.424324
1.791929 0.05705095 0.4285303
1.925939 0.05632903 0.4312046
2.047127 0.05760444 0.4386381
0.02625269 0.2057103 0.410166
0.1740901 0.2030193 0.4152647
0.3096328 0.2020053 0.4158221
0.4433574 0.2001392 0.4154219
0.5805133 0.1994876 0.4189636
0.7214715 0.1985274 0.4215724
0.8603088 0.1965946 0.4240268
1.01018 0.1847954 0.4245368
1.137362 0.1886047 0.4292442
1.27906 0.1904377 0.4325792
1.406847 0.1925205 0.4375933
1.543561 0.1924686 0.4403985
1.669826 0.1960733 0.446004
1.808735 0.1946945 0.448535
1.960796 0.1918651 0.450734
2.064107 0.1976049 0.4608344
0.05372526 0.3405857 0.4292893
0.2002179 0.3398811 0.4311779
0.3354 0.3382041 0.4335727
0.4696757 0.3369373 0.4332644
0.6071709 0.3362994 0.4373859
0.7471496 0.3347942 0.4414098
0.8850632 0.3339682 0.4444278
1.023126 0.3328355 0.4478841
1.160856 0.3317334 0.450067
1.295888 0.3305648 0.454133
1.432298 0.3285804 0.4566024
1.586646 0.3171878 0.4551553
1.737275 0.3075394 0.4526359
1.853259 0.3147893 0.4635997
1.97941 0.3222488 0.4728367
2.116997 0.3219312 0.4801049
0.07890685 0.4752561 0.4495261
0.2258515 0.4742841 0.450611
0.3620854 0.4734359 0.4534972
0.49597 0.4715528 0.4532494
0.6333125 0.4706664 0.4582746
0.7730944 0.469208 0.4602362
0.9102426 0.4689676 0.4625244
1.047808 0.4677662 0.4654563
1.184823 0.4665199 0.4709544
1.320378 0.4650966 0.4730073
1.457564 0.4641881 0.4771348
1.59602 0.463188 0.4795751
