CinemaCameraBeautifiers/bmpcc6k.cube
LUT_3D_SIZE 6
DOMAIN_MIN 0 0 0
DOMAIN_MAX 1 1 1
TITLE 
0.09057686 0.09160237 0.09029359
0.4402356 0.2614087 0.276448
0.4987785 0.3152187 0.3316959
0.5326507 0.3487462 0.3656792
0.5575835 0.3714034 0.3894144
0.5759301 0.3897116 0.4079073
0.3241371 0.4474807 0.3003905
0.4695448 0.4502301 0.3155888
0.5174168 0.4527332 0.3556504
0.5470871 0.4578558 0.3805755
0.5689166 0.4634733 0.4005636
0.5858595 0.4693201 0.4160207
0.3814122 0.5070478 0.3578266
0.4833124 0.5103059 0.3576275
0.5286411 0.5099912 0.3728103
0.5562794 0.5106147 0.3949158
0.5767366 0.5124479 0.4136991
0.5925223 0.5150605 0.4278165
0.4159988 0.5422264 0.3919109
0.4949129 0.5445875 0.3931053
0.5364897 0.5460078 0.3913026
0.5635657 0.5453891 0.4061985
0.5830623 0.5455585 0.4232032
0.598267 0.5465871 0.4367146
0.4403432 0.5675852 0.4165905
0.5048509 0.569768 0.4171169
0.5427256 0.5707934 0.4173433
0.5690765 0.5714252 0.4173443
0.5883091 0.5706704 0.4316933
0.6031557 0.570747 0.4431138
0.4580384 0.586599 0.435592
0.5142092 0.5880601 0.4373583
0.548461 0.5892136 0.4372157
0.5732683 0.5898969 0.436756
0.5924873 0.5899867 0.4391945
0.6071613 0.589565 0.4493189
0.2556193 0.3301562 0.4356007
0.4560185 0.3088976 0.4511
0.5100572 0.3479665 0.4548044
0.5416421 0.3724241 0.4618589
0.5643363 0.3914831 0.469276
0.5817258 0.4070742 0.4772339
0.3156883 0.4656713 0.4609219
0.470597 0.465092 0.461908
0.5229284 0.465069 0.4645347
0.5548099 0.464957 0.4669422
0.5783877 0.4648374 0.4694965
0.5963198 0.4652165 0.4722143
0.372538 0.5186529 0.4716619
0.4831607 0.5184702 0.472601
0.5298789 0.5181912 0.475108
0.5597311 0.5182383 0.4772036
0.5821871 0.5182227 0.478907
0.5994502 0.5184307 0.4817369
0.4071735 0.5514087 0.4812729
0.4939903 0.5513717 0.4817865
0.536436 0.5513134 0.4842439
0.564593 0.551138 0.4859797
0.5858182 0.5512021 0.4874671
0.6023468 0.5513039 0.4900343
0.4318635 0.5753576 0.4896389
0.5039498 0.5753752 0.4903263
0.5429067 0.5753492 0.4922468
0.5692242 0.5753403 0.4938605
0.5893707 0.5751781 0.4953566
0.6054516 0.5752422 0.4972795
0.4508135 0.5932093 0.4974565
0.5127463 0.5933654 0.4981814
0.5484201 0.5933545 0.4998139
0.5732943 0.5933077 0.5011925
0.5926466 0.5932332 0.5027635
0.608004 0.5933381 0.5046075
0.3092073 0.3855967 0.4946806
0.4558069 0.3648121 0.5100819
0.5148563 0.363544 0.5106562
0.5466949 0.3868553 0.5116172
0.568851 0.4049975 0.5141686
0.5860478 0.4193805 0.5179204
0.3479406 0.4767588 0.5106892
0.4700873 0.4772589 0.5155252
0.5225604 0.4769161 0.5159467
0.5547425 0.4768976 0.51793
0.5782628 0.476824 0.5191144
0.5962236 0.4771323 0.5208306
0.3726672 0.5251459 0.5201811
0.4828315 0.5252301 0.5213438
0.5296328 0.5248477 0.5219279
0.5598274 0.5248358 0.5231622
0.5821098 0.5249172 0.5242131
0.5992819 0.525051 0.5258065
0.4066256 0.5561027 0.5255664
0.4937288 0.556119 0.5269321
0.5364105 0.5559341 0.5272593
0.5645087 0.5558116 0.5283063
0.5856587 0.5558167 0.5296561
0.6024815 0.5559224 0.5310384
0.4320029 0.5787876 0.5309272
0.5037542 0.5790219 0.5319876
0.5426292 0.5788807 0.5322437
0.5690263 0.5788157 0.5334967
0.5892723 0.5786789 0.534473
0.6054019 0.5787929 0.5357349
0.4504536 0.5961617 0.5356923
0.5125942 0.5962854 0.5366502
0.5482534 0.5961749 0.5374287
0.5731262 0.5961787 0.5384413
0.5926364 0.5961564 0.5390843
0.608091 0.5961328 0.5403137
0.3431018 0.4194866 0.528752
0.455911 0.4004078 0.5436118
0.5145183 0.3983185 0.5450079
0.5492767 0.3973492 0.5455106
0.5721713 0.414751 0.5457782
0.5891856 0.4281688 0.5472789
0.3710521 0.4886327 0.541204
0.4696786 0.4876995 0.5479746
0.5223711 0.487636 0.5488849
0.5545992 0.4874052 0.5491666
0.5781494 0.4873629 0.5502194
0.5961561 0.4875605 0.5516549
0.3887052 0.5305976 0.5495039
0.4824469 0.5314668 0.5523972
0.5294524 0.5312627 0.5527551
0.5595979 0.5311179 0.5531713
0.5819033 0.5310805 0.5543046
0.5993287 0.5312842 0.5551566
0.4062402 0.5604217 0.5552037
0.4936259 0.5605636 0.5557942
0.5361373 0.5604649 0.5565069
0.5642712 0.560173 0.5571436
0.585552 0.560144 0.558028
0.6023378 0.5602669 0.5588758
0.431304 0.5823617 0.5587937
0.5035957 0.5824133 0.5595186
0.542458 0.5822843 0.5605836
0.5689244 0.5821432 0.5605694
0.5891277 0.5820995 0.5613387
0.605222 0.5822512 0.5623755
0.4500629 0.5990461 0.5624694
0.5119967 0.5992081 0.5631127
0.5479219 0.5990425 0.5640242
0.57306 0.5989522 0.5641368
0.592474 0.5989577 0.5651581
0.6080583 0.5989487 0.5661484
0.3660043 0.4439621 0.5540512
0.4562045 0.4250097 0.5677973
0.51445 0.4231403 0.5690064
0.5492557 0.4220387 0.5702808
0.5739453 0.4220017 0.5702887
0.5911715 0.4352466 0.5708588
0.3898934 0.4997396 0.5634964
0.4693311 0.4971218 0.5720868
0.5222441 0.4969734 0.5727222
0.554554 0.496891 0.5732034
0.5779012 0.4967126 0.5733178
0.5960064 0.4969108 0.574495
0.4061624 0.5364477 0.5705175
0.482215 0.5373356 0.5750178
0.5293204 0.5370689 0.5755169
0.5593451 0.5370394 0.5763921
0.5817866 0.5368599 0.5763828
0.5992322 0.5370324 0.5772883
0.4180337 0.5639736 0.5762478
0.4934722 0.5646937 0.5780933
0.5359706 0.5646411 0.5786661
0.5641188 0.5644376 0.5790586
0.5854578 0.5643473 0.5793382
0.6023084 0.5644946 0.5803636
0.4316084 0.5855329 0.5803081
0.5032639 0.5856692 0.5810046
0.5424257 0.5854872 0.581353
0.5689458 0.5854928 0.5819075
0.5891217 0.5853094 0.5822006
0.6052337 0.58548 0.5827631
0.4499393 0.601716 0.5831429
0.5118123 0.6018678 0.5834938
0.5478453 0.6017899 0.5840979
0.5730069 0.6017178 0.5848854
0.5923403 0.6016922 0.5850671
0.6080606 0.6016533 0.5858789
0.3841919 0.4618271 0.5720623
0.4571424 0.4431201 0.5860739
0.5147662 0.4419729 0.5874364
0.5491804 0.4404064 0.5876768
0.5739462 0.4395323 0.5882835
0.5924714 0.4403335 0.5888131
0.4045213 0.5091858 0.5803751
0.4691812 0.5049275 0.5896024
0.5221732 0.5048465 0.5901246
0.5544719 0.5047625 0.5905402
0.5779977 0.5046659 0.5910105
0.5958887 0.5047346 0.5916488
0.4186787 0.5420536 0.5863503
0.4819851 0.5422941 0.5920106
0.5291759 0.5421124 0.5923415
0.5593081 0.5420297 0.5928586
0.5817913 0.5419587 0.5933229
0.5992085 0.5420117 0.5940806
0.4301542 0.5674374 0.5911841
0.4932344 0.5684215 0.5946195
0.5357817 0.5683113 0.5950872
0.5640594 0.5681863 0.5953545
0.5855734 0.5681068 0.5957731
0.6021776 0.5681576 0.5962841
0.4380783 0.5880106 0.5952948
0.5031003 0.5885875 0.5969139
0.5422097 0.5884728 0.5971391
0.5687579 0.5884219 0.5978409
0.5890508 0.5883039 0.598393
0.6052278 0.5884387 0.5984252
0.4491434 0.6041418 0.5987112
0.5121152 0.6041766 0.5993506
0.5478139 0.6041756 0.5994125
0.572774 0.6041272 0.600176
0.5924907 0.6041042 0.6005256
0.6080195 0.6041563 0.6010627
