CinemaCameraBeautifiers/bmpcc6k_DebeautifiedWithoutMatrixRestore.cube
LUT_3D_SIZE 16
DOMAIN_MIN 0 0 0
DOMAIN_MAX 1 1 1
TITLE bmpcc6k_DebeautifiedWithoutMatrixRestore
-0.0001036859 -2.977593E-05 -0.0001283527
0.07393926 8.374062E-05 -9.880494E-05
0.1403683 0.0001845773 -0.0001323568
0.2077962 5.389636E-06 -0.0008351659
0.2711002 0.0009136706 -0.0002718217
0.3398868 0.0004104083 -0.0007645067
0.4104961 -9.699394E-05 -0.001232745
0.4765544 0.0001996095 -0.0008475167
0.5412017 0.0007069641 -0.0002423872
0.6053554 0.001224081 0.0001819153
0.6789032 -0.0007054642 -0.001798968
0.7427393 -0.0007915776 -0.001716439
0.8101818 -0.0006084549 -0.001000034
0.8766092 -0.000415333 -0.0006593433
0.9429354 -0.0001877814 -0.0002595083
0.9999681 2.723432E-05 5.226664E-06
0.0005258698 0.06633831 -0.0007333648
0.07244126 0.06572081 -0.0002451023
0.1402623 0.06579323 -0.001132117
0.2039377 0.06615172 -0.0002955874
0.2713024 0.06591666 -0.0006121059
0.3401915 0.06516038 -0.001424623
0.4068911 0.06513217 -0.001188998
0.4698704 0.06595978 0.0001724938
0.5397441 0.06565677 -0.0007099602
0.5994354 0.066717 0.001388192
0.6726392 0.06485173 -0.001364372
0.7373037 0.06491536 -0.001980257
0.8008417 0.06597031 -0.0007364136
0.8672031 0.06614302 -0.001499816
0.9338984 0.06645925 -0.0001988423
1.001322 0.06555506 -0.003220707
0.0008723363 0.1321516 -0.0004322605
0.07232155 0.1318727 0.0001062761
0.1381697 0.131824 -4.794702E-05
0.2037566 0.1321582 0.0004676381
0.2700738 0.132711 -0.000581855
0.3381389 0.1325687 -0.000743244
0.4041643 0.1328229 0.0004479903
0.4710495 0.1330109 -0.0003760849
0.5363998 0.1331705 -0.0002685522
0.603871 0.132732 -0.000196458
0.6724001 0.132121 -0.002525508
0.7395871 0.1317743 -0.002104706
0.8022041 0.1325941 -0.0004401983
0.8665355 0.1333694 9.812554E-05
0.9309888 0.1340646 0.0006963448
0.9880241 0.1348032 0.001663118
0.0008301004 0.1997484 -0.0004189023
0.07248843 0.1985856 9.250762E-05
0.13801 0.1996054 -0.0002943258
0.2023338 0.1990198 0.0005861532
0.2691369 0.1996091 6.907791E-05
0.3375001 0.1996734 -0.0004018855
0.4027815 0.1999584 0.0006371642
0.4685153 0.2000931 0.001088813
0.5319908 0.200384 0.003147051
0.6022456 0.1999604 -0.0007491746
0.6714517 0.1990966 -0.001371479
0.7348155 0.1999821 -0.0006747944
0.800072 0.1999075 2.745811E-05
0.8693998 0.1995734 -0.000595756
0.9358009 0.1995185 -0.00104536
0.9916155 0.201001 0.0005102343
0.0008137131 0.2664471 -0.0005333454
0.07211079 0.2643917 0.0003448667
0.1374771 0.2651469 0.0006222335
0.2032878 0.2669903 -0.001585037
0.2682514 0.2657513 4.778411E-05
0.3353375 0.2654386 0.001378838
0.4019056 0.2658664 0.001646728
0.4691263 0.2658194 0.00150939
0.5355609 0.2665719 -0.0001278941
0.6023038 0.2664014 -0.0008495325
0.6698287 0.2660087 -0.000819142
0.7334457 0.2665553 2.803666E-05
0.7964854 0.2672545 0.001112139
0.863456 0.2672899 0.001735925
0.9315342 0.2671605 0.002197655
0.9871079 0.2684895 0.003409451
0.001758466 0.3313536 0.0001292086
0.0727996 0.3294477 0.0006681111
0.1369365 0.331584 0.0003612246
0.2020372 0.3327738 -0.0002347113
0.2696514 0.3332951 -0.001597258
0.3346039 0.3315453 0.001467546
0.400077 0.3319897 0.002382945
0.4677896 0.3318529 0.002756662
0.534467 0.3327599 0.0009953964
0.6022404 0.3328955 -0.0005247518
0.6667188 0.3332553 4.324619E-05
0.7338307 0.3330669 -1.860925E-05
0.8011648 0.3330632 0.0001240238
0.8660603 0.3333924 0.001109737
0.9307248 0.3340702 0.002974193
0.9866564 0.3357597 0.004133848
0.001719079 0.398298 6.462567E-05
0.07017375 0.3984631 -0.001502515
0.1362845 0.3974361 0.000381767
0.2011049 0.398404 0.0004107117
0.2682222 0.3988127 0.0002238148
0.3358642 0.3990633 -0.0003106101
0.4005207 0.3983301 0.001579398
0.4651472 0.3991014 0.00223234
0.5332506 0.3994878 0.0009907234
0.6003164 0.3999542 -0.0002413957
0.6659661 0.399925 0.0004679345
0.7334383 0.4002902 0.000166112
0.7978193 0.4004423 0.001791515
0.8633675 0.4011174 0.0008826153
0.9292094 0.4010552 0.004090782
0.9861431 0.4022188 0.004338952
0.001917577 0.4651697 -0.0001394063
0.07101204 0.4634671 -0.0007412136
0.1370595 0.4625785 0.00117989
0.2009457 0.4650077 0.0005461929
0.2672953 0.4654894 0.0006013367
0.334969 0.4665911 -0.001032409
0.4010691 0.4654534 0.001406736
0.466715 0.4656117 0.0006252578
0.5335475 0.4666581 -0.0001552245
0.5981205 0.4659808 0.001992751
0.6659192 0.4664109 0.00130179
0.7292039 0.4671698 0.002848969
0.7988554 0.4668577 0.002066735
0.8631438 0.4675561 0.002710272
0.9304047 0.4679627 0.003272954
0.987083 0.4693967 0.003501282
0.002358092 0.5317283 -0.0002413873
0.07066055 0.5294852 -0.000901371
0.1373565 0.5284297 0.001290124
0.2010096 0.5303149 0.001033667
0.2669789 0.5313222 0.001197624
0.3335451 0.5316627 0.001930051
0.4021555 0.5346773 -0.003000821
0.4667132 0.5333681 -9.217867E-05
0.5326344 0.5329949 -6.116467E-05
0.5963447 0.5334417 0.001581623
0.6621657 0.5335582 0.002771715
0.7302517 0.5332286 0.003507981
0.795302 0.534524 0.002737367
0.8584571 0.5347992 0.00549916
0.9296148 0.5352283 0.003016313
0.9877394 0.5357658 0.006637344
0.002594776 0.5986769 -0.0001803683
0.07028062 0.5948573 0.0005366802
0.1356105 0.5959204 0.0007730494
0.2021571 0.5953901 0.001793466
0.2672524 0.5978563 0.001363749
0.3335671 0.5997921 0.0001811323
0.400006 0.6000109 -1.656996E-05
0.4681433 0.6027405 -0.003895469
0.5322375 0.6004044 0.0005496591
0.5988222 0.6001384 0.0009702294
0.6633738 0.6001619 0.002382376
0.7271494 0.601284 0.00291067
0.7961561 0.6009897 0.003071528
0.8617129 0.6010439 0.005208694
0.9258754 0.6023663 0.007001906
0.9876256 0.6027126 0.005394704
0.002874522 0.6655247 0.0001188871
0.07146311 0.660341 0.0001161014
0.1355672 0.6616558 0.001766513
0.1996222 0.6653479 -0.0002278905
0.266321 0.6660784 0.0001073185
0.3333286 0.6666635 1.109101E-05
0.3996268 0.6682465 -0.0004943368
0.465675 0.6688917 -0.001621212
0.5326663 0.6706922 -0.003677721
0.598837 0.6676624 0.001271206
0.6640291 0.6668594 0.002701198
0.7277273 0.6681911 0.002708999
0.7933655 0.6686278 0.004613928
0.8603733 0.6690243 0.005017158
0.9256342 0.6689842 0.005711196
0.989971 0.670154 0.002886328
0.00346751 0.7313581 0.001652465
0.06720649 0.7321319 -0.00202911
0.1345137 0.7309099 6.595975E-06
0.200332 0.7323001 0.0001438387
0.2666549 0.7333568 -1.5285E-05
0.331545 0.7347685 0.0001872385
0.3975598 0.7349392 0.0009797763
0.4649921 0.7357759 0.000367385
0.5314761 0.7377407 -0.002298036
0.5990092 0.7374641 -0.001865533
0.6639947 0.7359517 0.001731041
0.7302265 0.7348766 0.003231509
0.7933687 0.7356225 0.004592275
0.8557653 0.73673 0.006108012
0.9255838 0.736135 0.006004575
0.9863844 0.7381693 0.002724196
0.001905079 0.8032707 -0.0007421086
0.06605242 0.800768 -0.002854137
0.1334237 0.8000666 -0.001552504
0.1998958 0.80015 -9.4812E-05
0.2667671 0.7990533 0.001977788
0.3327958 0.8021742 0.0008123839
0.398494 0.8014808 0.002068854
0.4642856 0.8024645 0.002263143
0.5317671 0.8022308 0.002076844
0.5976887 0.8068724 -0.002922532
0.6647637 0.8059769 -0.001253755
0.7287512 0.8036231 0.003422115
0.7952209 0.8029327 0.003735852
0.8604615 0.8027153 0.005643984
0.9243087 0.804689 0.005515289
0.9875224 0.8057403 0.002166749
0.001278484 0.8734472 -0.00182078
0.0654112 0.8683081 -0.002376959
0.1333358 0.866666 -2.541518E-07
0.1993732 0.8672494 0.001352954
0.2667489 0.8680898 0.001133311
0.3330729 0.8680109 0.002746263
0.3975698 0.8694186 0.003081152
0.4632056 0.870356 0.002944955
0.5297105 0.8722785 0.001363024
0.5983144 0.8726348 0.0004139055
0.6649227 0.8758631 -0.00335588
0.7309453 0.8726404 0.0009655058
0.7934127 0.871823 0.004307816
0.8587716 0.8703961 0.006023566
0.9282331 0.8723804 0.002415163
0.9840727 0.8745463 0.00313273
0.002967214 0.9377118 0.001159323
0.06656268 0.9337648 -7.845587E-06
0.1300841 0.9371009 -0.0005315943
0.1990536 0.9359441 0.0008000361
0.2679437 0.9337217 0.004022816
0.3329644 0.9357415 0.003172813
0.3969499 0.9392374 0.002318125
0.4623837 0.93867 0.003119585
0.5281972 0.9404746 0.002787314
0.5967941 0.94035 0.002545423
0.6640275 0.9414884 0.0004666697
0.7302241 0.9442753 -0.003613151
0.7942246 0.9409253 0.002429766
0.8591307 0.9406381 0.003461328
0.9287351 0.9409767 0.001993117
0.9840469 0.9420156 0.002671052
-5.403226E-06 1.000008 -1.944471E-06
0.06745043 0.9899747 0.0004450567
0.1290912 0.9956152 -0.001141761
0.2005812 0.9898446 0.00418167
0.267055 0.9924682 0.003142674
0.3326795 0.9932951 0.003685108
0.3981332 0.9943748 0.004459667
0.4642823 0.9940962 0.005352595
0.5282178 0.996202 0.005056396
0.5955096 0.9967695 0.004524246
0.6628841 0.9965848 0.003720646
0.7300482 1.000241 -0.001310385
0.7955985 1.000012 -0.0003448992
0.8626717 0.999016 0.001044703
0.9302313 0.9984807 0.00205201
0.9883713 0.9991632 0.001831635
-0.000107886 0.0008893209 0.07305265
0.07314911 -4.813802E-05 0.06970674
0.138367 0.001569067 0.0695731
0.2042136 0.001146036 0.06967404
0.2684462 0.001690681 0.07018104
0.3382795 0.0002560655 0.06893654
0.406575 -5.826846E-05 0.06877155
0.4700918 0.0007046461 0.06924532
0.5357072 0.001277207 0.06893982
0.6014159 0.00101502 0.06901548
0.6708282 -0.0007322959 0.06734307
0.733487 -0.0005832378 0.06747839
0.8021174 -0.001001043 0.06704211
0.8675844 -0.0004156213 0.06752981
0.9334438 6.167219E-05 0.06669524
0.9910156 -9.229539E-05 0.07014402
-0.0001507387 0.06703933 0.070842
0.07195862 0.06630348 0.06802882
0.1386769 0.06627761 0.06825626
0.2045949 0.06609651 0.06850068
0.2703729 0.06600275 0.06866241
0.3388444 0.06541946 0.06878789
0.4137093 0.06167792 0.06485353
0.4865816 0.05847847 0.06079189
0.5526338 0.05964665 0.06184607
0.6140416 0.06165824 0.06367454
0.6747473 0.06348267 0.06532927
0.7349388 0.06453267 0.06574963
0.797115 0.06566921 0.06626086
0.8677309 0.06628029 0.06624913
0.9204205 0.06960607 0.06937189
0.9977486 0.06550559 0.06701294
0.0001710037 0.1332672 0.07005978
0.07173865 0.1332714 0.06755999
0.1376665 0.1330902 0.06739812
0.2034418 0.1332932 0.06744815
0.2697922 0.13342 0.06788176
0.3374294 0.1332563 0.06750536
0.4078889 0.1324297 0.06525682
0.4825474 0.1296619 0.05997807
0.5422547 0.1320104 0.0635401
0.6064193 0.132687 0.06540841
0.6690425 0.1336179 0.06690732
0.7362826 0.1329313 0.06654033
0.8013119 0.1329205 0.06597716
0.8723562 0.1314632 0.06427959
0.9458826 0.12876 0.05948702
1.009625 0.1276224 0.0592294
0.0001718543 0.2001075 0.06894889
0.0716674 0.2002599 0.06697005
0.1371873 0.2006017 0.06684156
0.2021955 0.2002611 0.06695065
0.2688775 0.2002801 0.06733041
0.3358812 0.2002304 0.06741662
0.4027334 0.20037 0.0671321
0.4753354 0.1991487 0.06307307
0.5416092 0.1988821 0.06226271
0.6056737 0.1991389 0.06395746
0.6708403 0.1993173 0.0650842
0.7336071 0.1999857 0.06646817
0.7995085 0.200161 0.06715268
0.8671975 0.2003091 0.0669983
0.9250193 0.2025653 0.06940244
0.9850554 0.2035272 0.07175454
0.0001560539 0.2660401 0.06841412
0.07128469 0.2661502 0.06630899
0.1371693 0.2665907 0.06676155
0.2016774 0.2671349 0.06666655
0.2678373 0.2665368 0.06706225
0.3356713 0.2663193 0.06725642
0.4024146 0.2667198 0.06691551
0.4683476 0.2666195 0.06710887
0.5370227 0.2665896 0.06465795
0.6026201 0.2663578 0.06509233
0.6669706 0.2666336 0.06644645
0.7334807 0.2665248 0.0658051
0.7977773 0.2673318 0.06750151
0.8643494 0.2679095 0.06756323
0.9236814 0.2698854 0.06996241
0.9903074 0.2691174 0.07037104
0.0006937463 0.3313501 0.06772233
0.07078909 0.3320483 0.0662448
0.136421 0.3328529 0.06617457
0.2011072 0.3332124 0.06609328
0.2680637 0.3333065 0.06644963
0.3351026 0.3330193 0.06662825
0.4015248 0.3332051 0.06672721
0.467326 0.3332689 0.0669009
0.5335358 0.333507 0.06659072
0.6008828 0.3334008 0.06584799
0.6720284 0.3332585 0.06236591
0.73269 0.3341951 0.06420755
0.7997839 0.334653 0.06514974
0.8607002 0.3349102 0.06805744
0.9284484 0.3354552 0.06866501
0.9874244 0.3366275 0.07050632
0.0001962161 0.3981591 0.06726831
0.07052037 0.3984447 0.06610819
0.1355525 0.3993728 0.06629135
0.2011365 0.3994174 0.06607014
0.2678871 0.3997886 0.06605738
0.3346139 0.400305 0.06619656
0.4004831 0.3999001 0.06678466
0.4661695 0.400358 0.06654619
0.5334778 0.400039 0.06651923
0.6026736 0.401169 0.06238959
0.6703198 0.4022405 0.05968998
0.7370213 0.401166 0.06151211
0.7999426 0.401801 0.06298313
0.8648508 0.4022583 0.06587909
0.9283565 0.4035955 0.06713438
0.9844774 0.404214 0.07205154
-0.0002226192 0.4651265 0.06673179
0.0706009 0.4646883 0.06497809
0.1362581 0.4653965 0.06611859
0.2013851 0.4661817 0.06573763
0.2674972 0.4663414 0.06589778
0.3335858 0.4669065 0.06596242
0.400375 0.4670216 0.06645745
0.4666879 0.4667009 0.0666221
0.5329794 0.4678499 0.0651527
0.6006837 0.4687459 0.06308516
0.6734557 0.4694771 0.05669354
0.7422184 0.4702467 0.05476359
0.8000382 0.4699399 0.06292519
0.8675271 0.4686567 0.06333908
0.9306153 0.469697 0.06576765
0.9907949 0.4709267 0.06964395
0.0006427636 0.5305835 0.06658404
0.06998845 0.5309621 0.06483959
0.135511 0.5319961 0.06620583
0.2003351 0.5327331 0.06673402
0.2667911 0.5329461 0.06654904
0.3333435 0.5332543 0.06674351
0.4000186 0.5333697 0.066666
0.4664933 0.5346835 0.06607863
0.5334517 0.5346528 0.0655444
0.6009191 0.5366913 0.06234016
0.6667068 0.5379013 0.06025037
0.742455 0.5383596 0.05168151
0.8100517 0.5387971 0.05087854
0.8709997 0.5382894 0.05839241
0.9326831 0.5376838 0.06511246
0.9905817 0.5369691 0.06885277
0.001250965 0.5962368 0.06672839
0.06795349 0.59881 0.06515116
0.1360185 0.5981192 0.06669544
0.200957 0.5990548 0.06663789
0.2662508 0.6001034 0.06623502
0.3333341 0.6000389 0.06666771
0.3992287 0.6004843 0.0671315
0.4641515 0.601866 0.0662777
0.5305444 0.6029612 0.06618852
0.5996218 0.6030923 0.06387072
0.668779 0.6051763 0.05979572
0.7363502 0.6061655 0.05785575
0.8100856 0.6075014 0.04961669
0.8829248 0.6070557 0.04749343
0.9385251 0.6060719 0.05725851
0.9930196 0.6061842 0.0650064
0.001148279 0.6626771 0.06723784
0.06855094 0.6645178 0.06565908
0.1357439 0.6644068 0.06688497
0.1992614 0.6665962 0.06652316
0.2666446 0.6667737 0.06659152
0.3324469 0.6678827 0.06643283
0.3992741 0.667474 0.06743807
0.4642146 0.6684506 0.06727922
0.530825 0.669648 0.06613273
0.598051 0.6705581 0.06560665
0.6651003 0.6717085 0.06338547
0.7355661 0.6746824 0.05675498
0.8035291 0.6759916 0.05479315
0.8777457 0.6758096 0.04846891
0.9478545 0.6747351 0.04704485
1.00609 0.6743279 0.05311612
0.0008654827 0.7299991 0.06688472
0.06770283 0.7319402 0.06575719
0.1341219 0.7323572 0.06670906
0.1999314 0.7334714 0.06659027
0.2656573 0.7354125 0.06625582
0.3330038 0.7357965 0.06668196
0.3993634 0.7357965 0.06690208
0.4635265 0.7362158 0.06765842
0.5285969 0.7372192 0.06764061
0.5977409 0.7385098 0.06542716
0.6635227 0.7395435 0.06553632
0.73342 0.740586 0.06161008
0.8045672 0.7436895 0.05383126
0.8729467 0.7444987 0.05214304
0.9417449 0.7447975 0.04824375
1.004728 0.7438193 0.04948507
0.0005652723 0.7974674 0.06662511
0.06746855 0.7987968 0.06620179
0.1332317 0.8001992 0.0665508
0.1986586 0.8021937 0.06597944
0.2657195 0.8035746 0.06618559
0.3335562 0.8030066 0.06674648
0.3990338 0.8041157 0.06689043
0.4646612 0.8033641 0.0678464
0.5311676 0.8039659 0.06817812
0.5963457 0.8059099 0.06708028
0.6650624 0.806922 0.06521471
0.7311229 0.8073971 0.0648599
0.7988606 0.8094152 0.0602329
0.8711851 0.8125635 0.05155152
0.937921 0.8143995 0.04944955
0.9963772 0.8149441 0.05108149
0.0002799468 0.8652549 0.06663018
0.06646085 0.8671926 0.06627099
0.1308437 0.871191 0.06457854
0.1991487 0.8712625 0.06503753
0.2653698 0.8719329 0.06580844
0.3325947 0.8733412 0.0648887
0.3967681 0.8733886 0.06647378
0.465044 0.8732563 0.06652613
0.5310311 0.8719979 0.06842997
0.5961605 0.8732238 0.06820049
0.6617594 0.8750081 0.0665497
0.7279607 0.8758704 0.06480957
0.7969171 0.8763348 0.06418966
0.8636402 0.878446 0.05916449
0.9395975 0.8817713 0.05012747
1.000061 0.8836644 0.04894826
-0.0004574096 0.9343809 0.06629218
0.06369669 0.9391829 0.06356124
0.1301913 0.9406366 0.06354435
0.1964405 0.9420893 0.06378058
0.2659792 0.9410459 0.06442858
0.3319511 0.9424682 0.06471039
0.3979185 0.9415504 0.06636116
0.4653452 0.9417526 0.06660891
0.5297264 0.9416691 0.06759572
0.59621 0.9407982 0.06862431
0.6606607 0.9418854 0.06831647
0.728798 0.9432619 0.06583199
0.7958186 0.9442288 0.06413972
0.8627028 0.9453222 0.06375749
0.9348449 0.947335 0.05741307
0.9981937 0.9508103 0.05236385
-0.001971371 0.9934592 0.06634954
0.06071774 1.000594 0.06222641
0.1280372 0.99984 0.06299572
0.1965409 0.9992169 0.06411691
0.2635081 1.001713 0.06324124
0.3301519 1.000772 0.0650476
0.3969261 1.00138 0.06477225
0.463052 1.000012 0.06711393
0.5296635 0.9998369 0.06668077
0.5936792 0.9978842 0.06948178
0.6590737 0.9993371 0.06907742
0.7261129 0.9995913 0.06830139
0.796542 1.000748 0.06550278
0.8616238 1.002144 0.06427388
0.9323486 1.002587 0.06365237
0.9945604 1.005445 0.05862206
-0.0001743001 0.001286987 0.1392192
0.07234074 0.0006215401 0.137686
0.1391376 -0.0003106914 0.1353829
0.203309 0.001582651 0.1345402
0.268118 0.002966228 0.1345385
0.3377305 0.0005967242 0.1341348
0.4033277 0.001315929 0.1345818
0.4703358 0.001305044 0.1345614
0.5352451 0.001495211 0.1352723
0.6023473 0.0006233505 0.1343849
0.6712356 -0.0008452691 0.1330326
0.7333066 -0.0001850139 0.1340399
0.8055779 -0.00175584 0.1324192
0.8666217 3.705846E-05 0.133313
0.9313272 0.0002951731 0.133435
0.9941782 -0.0004138316 0.135059
0.0001251685 0.06726404 0.1353923
0.07199834 0.06656025 0.1354609
0.1377068 0.06629229 0.1339287
0.203071 0.06644027 0.133713
0.2699261 0.06627613 0.1339408
0.3385868 0.06510495 0.1336435
0.4112499 0.06167159 0.1324396
0.4812491 0.05985385 0.1312235
0.5354492 0.06484012 0.1352791
0.5991741 0.06728344 0.1361229
0.669049 0.06676397 0.1345288
0.7333637 0.06664954 0.1340443
0.8000187 0.06657838 0.1333366
0.8701366 0.06626484 0.1320361
0.9340815 0.06747373 0.1336062
0.991433 0.06876674 0.1354132
-0.0002760549 0.1339689 0.1352155
0.07175807 0.133762 0.1348446
0.1369014 0.1337483 0.1323884
0.2024987 0.1337419 0.1330304
0.2689098 0.1340853 0.1324484
0.3366557 0.133904 0.1328206
0.403344 0.1336381 0.1332752
0.4695714 0.1337812 0.1330463
0.5364889 0.1335712 0.133185
0.6029292 0.1333133 0.1330659
0.6698745 0.1328179 0.1332072
0.7353793 0.1324781 0.1323435
0.8290092 0.1220212 0.1205533
0.9135664 0.115165 0.1125596
0.9707252 0.1179012 0.1152298
1.023109 0.1204887 0.1197017
0.0004850656 0.2001588 0.1344473
0.0713186 0.200736 0.1342526
0.1365719 0.200837 0.1319354
0.2021421 0.2004577 0.1322023
0.2685373 0.2006269 0.1319578
0.3362001 0.2007734 0.1316266
0.4024257 0.2006664 0.1319884
0.4687781 0.2005856 0.1326568
0.535181 0.2004925 0.1330615
0.6006711 0.2004019 0.1332261
0.6666944 0.2000116 0.1332981
0.7387046 0.1983113 0.1299842
0.8125374 0.1965994 0.1251593
0.8874287 0.1940125 0.1200261
0.9524551 0.1936048 0.1211972
1.010884 0.194427 0.1236735
0.0001539088 0.266527 0.134387
0.07076155 0.266779 0.1340379
0.1365637 0.2668437 0.1320586
0.2016135 0.2670552 0.1321441
0.2675148 0.2668599 0.1321815
0.3355633 0.2669256 0.1319759
0.4020137 0.2668559 0.1324509
0.4682653 0.2669486 0.1328527
0.5341869 0.2670875 0.1326224
0.600072 0.2666602 0.1332708
0.6670778 0.2668866 0.1313997
0.7364064 0.2663579 0.1307837
0.8067789 0.265236 0.1280006
0.8865722 0.2613144 0.1199898
0.9585263 0.2597163 0.1158904
1.015037 0.2617824 0.1216411
0.0005056427 0.3322871 0.1343416
0.07021897 0.3330586 0.1337579
0.1366478 0.3327725 0.1322243
0.2012818 0.3334021 0.1330277
0.2671122 0.3337322 0.1322166
0.3341461 0.3332029 0.1323998
0.4013893 0.3335155 0.1326128
0.4662997 0.333718 0.1327417
0.5333296 0.3333412 0.1333314
0.5992995 0.3338248 0.1327372
0.6657906 0.3335401 0.1334306
0.7348624 0.333354 0.1310255
0.8052629 0.3327443 0.1271871
0.8733449 0.3324453 0.1264082
0.9453757 0.3309982 0.1232494
1.010251 0.3297948 0.121132
0.0002872534 0.3985443 0.1347957
0.07070366 0.3985027 0.1342013
0.1368471 0.3988895 0.1332186
0.2009729 0.399859 0.1326386
0.2667518 0.4001035 0.1328515
0.3340596 0.4003402 0.1331314
0.3999942 0.3997076 0.1332532
0.466653 0.4000167 0.1333234
0.5317281 0.4004347 0.1330885
0.5977333 0.400641 0.1335182
0.6642762 0.4007461 0.133128
0.7293315 0.4010775 0.1331624
0.7954869 0.401224 0.1338014
0.8685319 0.4005678 0.1288864
0.9432567 0.399469 0.1242203
1.006197 0.3996389 0.1242128
0.0004622798 0.4648052 0.1343714
0.06938217 0.4656218 0.134173
0.1355444 0.4657571 0.1324158
0.2008704 0.4664545 0.1327433
0.2662682 0.4666649 0.1331848
0.3338787 0.4666659 0.1333757
0.3999989 0.466678 0.1333289
0.4650918 0.4670011 0.1331501
0.5327055 0.4668083 0.1341595
0.5984358 0.467353 0.1333399
0.6625043 0.4677283 0.1337952
0.7288875 0.4683181 0.1329312
0.7957413 0.4678446 0.1336232
0.8625025 0.4682443 0.1341067
0.9343491 0.4683405 0.1316474
0.9968305 0.4680365 0.130537
0.000100559 0.5316972 0.1347397
0.06993633 0.5307747 0.1355839
0.1349784 0.5320244 0.1323422
0.2004055 0.5328802 0.133448
0.2666425 0.5334187 0.1334097
0.3333278 0.5333413 0.1333394
0.3997529 0.533855 0.1337144
0.4649797 0.5341159 0.1336731
0.5312027 0.534244 0.1333867
0.5984643 0.5340592 0.1341406
0.6626906 0.534561 0.1337319
0.7286991 0.5350067 0.1335338
0.794878 0.5354725 0.1339872
0.8620172 0.5359084 0.1334296
0.9298068 0.5356476 0.1333289
0.9888183 0.5363854 0.1352426
0.001075025 0.5971039 0.134132
0.06802592 0.5988098 0.1348985
0.1353154 0.5980946 0.1327088
0.2009694 0.5995591 0.1338811
0.266655 0.6000065 0.1333423
0.3320808 0.6006177 0.1333375
0.3998924 0.6006706 0.1337842
0.4642849 0.6014675 0.1332661
0.5293167 0.602084 0.1335313
0.5955366 0.6019232 0.1341605
0.6638933 0.6017777 0.1336841
0.7306539 0.6019245 0.1337018
0.7973725 0.6021452 0.1345108
0.8612704 0.6030948 0.1334315
0.9279544 0.6030914 0.1331566
0.9871684 0.604015 0.1353115
0.0002683791 0.6648177 0.133904
0.0682131 0.6649417 0.1344925
0.1348462 0.6647307 0.1336729
0.2000095 0.6666728 0.1333193
0.2670845 0.6666712 0.1333775
0.3341072 0.6670879 0.1335557
0.3993424 0.6678295 0.1330346
0.4640034 0.668932 0.1330859
0.5296275 0.6687216 0.1337717
0.5957152 0.6698053 0.1331471
0.662909 0.6693789 0.1344002
0.7295033 0.6696874 0.1333416
0.7937238 0.6701264 0.1335546
0.860087 0.6696942 0.1344273
0.9283049 0.6699065 0.1337822
0.987226 0.6705647 0.1360305
-0.0005525752 0.7328982 0.1332903
0.06792223 0.7317773 0.1347413
0.133283 0.7333829 0.1332602
0.1999022 0.7335956 0.1341435
0.2656766 0.7351291 0.1331905
0.3319822 0.7357416 0.1328002
0.3983763 0.7353295 0.1335562
0.464958 0.7358711 0.1335867
0.5296769 0.7367525 0.132983
0.594546 0.7374694 0.1338374
0.6635174 0.7378083 0.1332818
0.7302423 0.7367405 0.1339606
0.7949243 0.7374289 0.1340495
0.8585553 0.7381449 0.1332164
0.9262956 0.7381574 0.1336304
0.9852275 0.7388788 0.1353906
-0.0006680945 0.8003229 0.1325916
0.06669674 0.8000042 0.1333515
0.1341316 0.7994967 0.1336266
0.2004213 0.8011327 0.1331549
0.2659369 0.8022042 0.1334111
0.332059 0.8034642 0.1326085
0.397988 0.8032056 0.1327307
0.4634213 0.8036292 0.1334824
0.5295379 0.8045391 0.1332256
0.5964215 0.8043956 0.1336564
0.6602372 0.8056751 0.1330329
0.7262061 0.8056565 0.1340277
0.7939286 0.8052423 0.1330971
0.8595923 0.8055826 0.1333825
0.9272915 0.8054566 0.1342185
0.985925 0.8059867 0.1358355
1.102389E-06 0.8666627 0.1333609
0.0652708 0.8687673 0.1340019
0.1332744 0.8677799 0.1326081
0.1985435 0.8695469 0.1336231
0.2673418 0.8690221 0.1336888
0.3309875 0.8715114 0.1334941
0.398099 0.8714125 0.1325608
0.4637016 0.8716329 0.1333131
0.528934 0.8725539 0.1334548
0.5944541 0.8726625 0.1330245
0.6608862 0.8726355 0.1332216
0.7277341 0.8730242 0.133352
0.7927048 0.874306 0.1328889
0.8594018 0.8731881 0.1336277
0.9260167 0.8735611 0.133809
0.9845672 0.8748174 0.1356716
0.0004189571 0.9339374 0.1324093
0.0649699 0.9370616 0.1343028
0.1300847 0.9374985 0.1318364
0.200687 0.93568 0.1341128
0.2653695 0.9386229 0.1335957
0.332591 0.938221 0.1339958
0.3973607 0.9404139 0.1326533
0.461769 0.9403881 0.1336336
0.528677 0.9398401 0.1334673
0.5944005 0.9405345 0.1333607
0.6604339 0.940377 0.1333874
0.7249399 0.9411712 0.1334714
0.7895119 0.9428213 0.1327931
0.8586986 0.9421712 0.1334311
0.9243174 0.941983 0.1339115
0.9838251 0.9431824 0.1354017
0.0004988385 0.9907113 0.1330163
0.06591679 0.9926162 0.1352093
0.131645 0.9928941 0.1330353
0.200458 0.9930722 0.1342532
0.2670088 0.9947566 0.1340656
0.3315285 0.9963859 0.1341066
0.3986103 0.9961879 0.1343107
0.464068 0.9958487 0.1344655
