CinemaCameraBeautifiers/bmpcc6k.cube
LUT_3D_SIZE 16
DOMAIN_MIN 0 0 0
DOMAIN_MAX 1 1 1
TITLE 
0.09057686 0.09160237 0.09029359
0.3530056 0.1894587 0.2024272
0.4070117 0.2331268 0.247947
0.4402356 0.2614087 0.276448
0.4634311 0.284071 0.2990116
0.4826567 0.3008278 0.3166452
0.4987785 0.3152187 0.3316959
0.5117605 0.327898 0.3446648
0.5228778 0.3389987 0.3559313
0.5326507 0.3487462 0.3656792
0.5421969 0.3562831 0.3737534
0.5499866 0.363816 0.3815
0.5575835 0.3714034 0.3894144
0.5644506 0.3782403 0.3963403
0.5708117 0.3845943 0.4027739
0.5759301 0.3897116 0.4079073
0.2400241 0.353453 0.2143011
0.3804884 0.3560247 0.2318635
0.4254473 0.3589205 0.2668675
0.4534504 0.3642818 0.2910683
0.4751001 0.3697939 0.309518
0.4925928 0.3751471 0.3242187
0.506959 0.3805878 0.3373106
0.5188352 0.3860513 0.3490391
0.5299508 0.3910604 0.3586072
0.5387949 0.3959779 0.3682353
0.5478894 0.3997817 0.3749857
0.5554395 0.4040237 0.3818256
0.5624556 0.4085407 0.3891874
0.5690404 0.4125552 0.3951191
0.575298 0.4165372 0.4017748
0.5808198 0.4199295 0.4060366
0.2918281 0.4121483 0.267475
0.3939442 0.4154545 0.2680743
0.4362527 0.4149019 0.2830796
0.4627278 0.4157098 0.3052578
0.4825998 0.4177476 0.321477
0.4990759 0.4201725 0.335204
0.5126441 0.4229992 0.347689
0.5241709 0.4259587 0.3574911
0.5342191 0.4288279 0.3665902
0.5434661 0.4315719 0.374846
0.5516716 0.4343865 0.3813485
0.5593043 0.4370474 0.3884928
0.5660281 0.4398684 0.3952653
0.572332 0.4427117 0.4012431
0.5781761 0.4455032 0.4069716
0.5830715 0.4479389 0.4119132
0.3241371 0.4474807 0.3003905
0.4047664 0.449951 0.3011279
0.4440621 0.4510426 0.3003838
0.4695448 0.4502301 0.3155888
0.4888787 0.4504948 0.3305349
0.504562 0.4513963 0.3437437
0.5174168 0.4527332 0.3556504
0.5285327 0.4543694 0.3652028
0.5382239 0.4561047 0.3743437
0.5470871 0.4578558 0.3805755
0.5552413 0.4595472 0.3876546
0.5622765 0.4616331 0.3943004
0.5689166 0.4634733 0.4005636
0.5753469 0.4654131 0.4061514
0.5811035 0.4673475 0.4112443
0.5858595 0.4693201 0.4160207
0.3474451 0.4722038 0.3237563
0.4140694 0.4742371 0.3248186
0.449991 0.4752553 0.3245441
0.4753686 0.4758042 0.3242964
0.4939313 0.4750261 0.3379604
0.5091385 0.4749293 0.3515146
0.521644 0.4755308 0.3621199
0.5325537 0.4763129 0.3714295
0.5419848 0.4773993 0.3791316
0.5504946 0.4785433 0.3860895
0.5583678 0.479702 0.3928911
0.565268 0.481107 0.3992032
0.5715783 0.482592 0.4051631
0.5777338 0.4840254 0.4108447
0.5835516 0.4854419 0.4161963
0.5881308 0.4869393 0.4206596
0.3663275 0.4912151 0.3426301
0.4233001 0.4929477 0.3434747
0.4555507 0.4941729 0.3429095
0.4795101 0.4949187 0.34165
0.4985505 0.4948526 0.3447713
0.5130408 0.4941607 0.3577991
0.5253313 0.4941543 0.3680295
0.5359591 0.4944707 0.377237
0.5452294 0.4950999 0.3840584
0.5536076 0.4957707 0.3909393
0.5610204 0.4965984 0.3978035
0.5680117 0.4975107 0.4037369
0.5745094 0.4985119 0.4093742
0.580402 0.4995827 0.4147644
0.585964 0.5007164 0.4201201
0.5904704 0.5019988 0.4244297
0.3814122 0.5070478 0.3578266
0.4306865 0.5087858 0.3575358
0.4606721 0.5095953 0.3582659
0.4833124 0.5103059 0.3576275
0.501784 0.5106983 0.3574572
0.5167863 0.5104194 0.3627235
0.5286411 0.5099912 0.3728103
0.5389879 0.5099613 0.3812405
0.5481602 0.5102259 0.3883497
0.5562794 0.5106147 0.3949158
0.5636476 0.5111346 0.4015952
0.5705388 0.5117822 0.4076719
0.5767366 0.5124479 0.4136991
0.5824656 0.5133121 0.4183534
0.5880678 0.5141314 0.423907
0.5925223 0.5150605 0.4278165
0.3944856 0.5204076 0.3706422
0.4385719 0.5217819 0.3713012
0.4660654 0.5225896 0.3717113
0.487281 0.523422 0.3710262
0.5048589 0.5238625 0.3706385
0.5196135 0.5241013 0.3708619
0.531705 0.5237595 0.3780021
0.5419036 0.5234262 0.3848559
0.5511002 0.5233412 0.3918808
0.5588558 0.5234744 0.3995161
0.5662011 0.523784 0.4055529
0.5726844 0.5242772 0.411523
0.5790748 0.5246902 0.4169575
0.584675 0.525308 0.4221328
0.5901532 0.5259128 0.4271752
0.5945292 0.5266676 0.4309573
0.4059678 0.531959 0.3818406
0.4454893 0.5331574 0.3824365
0.4709895 0.5339829 0.3829574
0.4910107 0.534656 0.3828064
0.5078521 0.5352064 0.3823731
0.522056 0.5355216 0.3828623
0.53447 0.5357475 0.3818998
0.5445178 0.5354577 0.388589
0.5533808 0.535088 0.395593
0.5611714 0.5350004 0.4029446
0.5683222 0.5351363 0.409288
0.5749978 0.5353169 0.4153102
0.5809196 0.5357343 0.4201417
0.5864855 0.5361515 0.4254234
0.5920165 0.5366073 0.4297407
0.5965495 0.537145 0.4345885
0.4159988 0.5422264 0.3919109
0.4517017 0.5432767 0.3931601
0.4753487 0.5441571 0.3928114
0.4949129 0.5445875 0.3931053
0.5109602 0.5452302 0.3926062
0.5247059 0.5457293 0.391555
0.5364897 0.5460078 0.3913026
0.5469839 0.5460543 0.3924951
0.555643 0.5456908 0.3996538
0.5635657 0.5453891 0.4061985
0.570603 0.5452353 0.4126586
0.5769262 0.5454243 0.4178831
0.5830623 0.5455585 0.4232032
0.5885688 0.5458365 0.4287097
0.5937948 0.5462455 0.4331342
0.598267 0.5465871 0.4367146
0.4249729 0.5514262 0.4010587
0.4582143 0.5522181 0.4017392
0.4799574 0.553111 0.4024167
0.498018 0.5539408 0.4011823
0.5137402 0.5543836 0.4011287
0.5271419 0.5547904 0.4004829
0.5387075 0.5551444 0.4001327
0.5487272 0.5553006 0.400374
0.5577372 0.5552893 0.4026513
0.565627 0.5548707 0.4096684
0.5725784 0.5545657 0.4159274
0.5788859 0.5545573 0.4210081
0.5848942 0.5546234 0.4263755
0.5903832 0.5548226 0.4311933
0.5953991 0.5550053 0.4357206
0.6000043 0.555265 0.4388601
0.4330152 0.5597739 0.4098615
0.4629187 0.5609056 0.409436
0.4843363 0.5614673 0.4100645
0.5016196 0.5621789 0.4096126
0.5166293 0.5626206 0.4094944
0.5293339 0.5630406 0.4091556
0.540518 0.563316 0.4093187
0.5506296 0.5635864 0.4088697
0.559468 0.5637172 0.4092325
0.56749 0.5635334 0.4127599
0.5744609 0.5632968 0.4184404
0.5808547 0.5629867 0.4242174
0.586562 0.5629445 0.4294088
0.5919099 0.5630198 0.4338171
0.5971566 0.5630689 0.4382223
0.6014513 0.5633491 0.4409483
0.4403432 0.5675852 0.4165905
0.4681196 0.5685782 0.416769
0.4884671 0.5690998 0.4171868
0.5048509 0.569768 0.4171169
0.5194049 0.5700187 0.4178751
0.5319521 0.570549 0.4172131
0.5427256 0.5707934 0.4173433
0.5524184 0.5710294 0.4174497
0.5612542 0.5712008 0.4172203
0.5690765 0.5714252 0.4173443
0.5762305 0.571229 0.4212196
0.5824411 0.5709412 0.4269418
0.5883091 0.5706704 0.4316933
0.5937148 0.5705321 0.4368
0.598753 0.5706297 0.4404897
0.6031557 0.570747 0.4431138
0.4472437 0.5747264 0.4232654
0.4730537 0.5755906 0.4239562
0.4924305 0.5760372 0.4248973
0.5081162 0.5766771 0.4247812
0.5222043 0.5770596 0.424495
0.5342532 0.5773559 0.4251349
0.5446863 0.5777261 0.4249319
0.5541238 0.5779961 0.4247366
0.562767 0.5782925 0.423909
0.5707579 0.5784076 0.4240437
0.5778266 0.5784953 0.4249035
0.5841795 0.5781472 0.4296702
0.5897454 0.5780036 0.434347
0.5950651 0.5777141 0.439203
0.6003864 0.5776711 0.4420547
0.6044726 0.5777989 0.4456855
0.4537367 0.5811888 0.4306289
0.478018 0.5819928 0.4311167
0.4957753 0.5826792 0.431337
0.5114242 0.5831243 0.4311814
0.5249749 0.5834132 0.4320217
0.5364916 0.5838223 0.4317034
0.5466846 0.5842791 0.4312748
0.5558298 0.5844896 0.4311696
0.5642533 0.5847515 0.4310887
0.5721534 0.5848956 0.4308445
0.5792034 0.5849439 0.4312446
0.5855854 0.5849884 0.4318386
0.5912408 0.5846961 0.437
0.596562 0.5845539 0.4405535
0.6018084 0.5843747 0.4441598
0.6057829 0.5843645 0.4476326
0.4580384 0.586599 0.435592
0.4820357 0.587055 0.43624
0.49887 0.5878398 0.4362887
0.5142092 0.5880601 0.4373583
0.5270332 0.5886093 0.4368064
0.5383796 0.5889229 0.4369656
0.548461 0.5892136 0.4372157
0.5575568 0.5894247 0.4371405
0.5655847 0.5897337 0.4370938
0.5732683 0.5898969 0.436756
0.5802793 0.5900251 0.4363194
0.5867162 0.5901061 0.4364204
0.5924873 0.5899867 0.4391945
0.5979859 0.5898388 0.442088
0.6030532 0.5896468 0.4460976
0.6071613 0.589565 0.4493189
0.1848864 0.250085 0.3487937
0.368792 0.22945 0.3612549
0.4187635 0.2640648 0.3651337
0.4489951 0.2860472 0.3716263
0.4707914 0.3037219 0.37872
0.4888377 0.3172321 0.3853678
0.5037262 0.3297729 0.3922451
0.5158363 0.3408404 0.3985893
0.5267515 0.3505948 0.404421
0.5363551 0.3589037 0.4101474
0.5452083 0.365837 0.4150836
0.5527553 0.372768 0.4199443
0.5602504 0.3794245 0.4247633
0.5669708 0.3858769 0.4294281
0.5731826 0.3917176 0.4333591
0.5783324 0.3966503 0.4382369
0.2308396 0.373055 0.3711994
0.3818351 0.3713245 0.3702995
0.431141 0.3712539 0.3730515
0.4618184 0.3711602 0.3752999
0.4845293 0.3710527 0.3775487
0.5029336 0.3708335 0.3798133
0.5164255 0.3747698 0.384918
0.5269548 0.3813033 0.391937
0.5370025 0.3873645 0.398688
0.545521 0.3932499 0.4049745
0.5531743 0.3986028 0.4106988
0.5600556 0.4031326 0.4154428
0.5666395 0.4076096 0.4201232
0.5734347 0.4122225 0.4250098
0.5784472 0.4169774 0.4297288
0.5842224 0.4207086 0.4343474
0.2835046 0.4245779 0.3806483
0.3936067 0.4240729 0.3798512
0.4376102 0.4236836 0.3821473
0.4665839 0.4237093 0.3841091
0.488407 0.4237403 0.3862799
0.5059403 0.4237086 0.3881849
0.5205807 0.423665 0.3899502
0.5326946 0.4238686 0.3922829
0.5421404 0.4262748 0.3984007
0.5506274 0.429031 0.4044246
0.5581642 0.4318142 0.4098137
0.5653812 0.4340513 0.4143644
0.5717763 0.4365877 0.4187129
0.5777988 0.4394939 0.423799
0.5833013 0.442192 0.428014
0.5881355 0.4447148 0.4325654
0.3159486 0.4570402 0.3891009
0.4039759 0.4567111 0.3884133
0.4440008 0.4566294 0.3906351
0.4709629 0.4562923 0.3922565
0.4919426 0.456212 0.3942614
0.5088744 0.4561653 0.3960609
0.5229668 0.4561442 0.3976302
0.5351304 0.4560625 0.3995148
0.5451307 0.4564362 0.402452
0.5534451 0.4577915 0.4080155
0.5611191 0.4591532 0.4130455
0.567924 0.460661 0.4178742
0.574321 0.4623359 0.4226615
0.5803577 0.464046 0.4271262
0.5854452 0.4661375 0.4315455
0.5903761 0.4678371 0.4358068
0.3393295 0.4803147 0.3969383
0.4132341 0.4800527 0.3964563
0.450038 0.4800002 0.398571
0.4753761 0.4800017 0.4000461
0.4951961 0.4796832 0.4016988
0.5118076 0.4795746 0.4033596
0.5255281 0.479577 0.404817
0.5371678 0.4795563 0.4063855
0.5474622 0.479605 0.4077899
0.5560229 0.4799693 0.4118735
0.5636559 0.480587 0.4163731
0.5703907 0.4815079 0.4210264
0.5766153 0.4826976 0.4260325
0.5824965 0.48386 0.4304753
0.5876066 0.4853158 0.4348992
0.5927038 0.4864731 0.4388483
0.358442 0.4984913 0.4041469
0.4213308 0.4984855 0.4036445
0.4553302 0.4984673 0.4055008
0.479407 0.4984465 0.4069169
0.498779 0.4983283 0.4085824
0.5144631 0.4981191 0.4099177
0.5278087 0.4981038 0.4114042
0.5392355 0.4980797 0.4129955
0.549342 0.498067 0.4141525
0.5583754 0.4980506 0.4155658
0.5661011 0.4982714 0.4193909
0.5724845 0.4988872 0.4241239
0.5789334 0.4994644 0.4287542
0.5843538 0.5004101 0.4333081
0.5898845 0.5013206 0.4376078
0.5945184 0.5022857 0.441518
0.3732515 0.5138617 0.4110717
0.4289086 0.5138007 0.4104467
0.4603588 0.5137792 0.4121251
0.483444 0.5137063 0.4135388
0.50205 0.5136366 0.4148936
0.5172613 0.5135988 0.4162975
0.5299055 0.513432 0.4177709
0.5411317 0.5134419 0.4189562
0.5512302 0.5133794 0.4203406
0.560037 0.5133533 0.4213175
0.5678816 0.5134398 0.4228326
0.5746962 0.513658 0.4272262
0.5806695 0.5141008 0.4316188
0.5865044 0.5145538 0.436238
0.591785 0.5151736 0.4402005
0.5962852 0.5159174 0.4444016
0.3859324 0.5269636 0.4174155
0.4363513 0.5267061 0.4165525
0.4655541 0.5267131 0.4184466
0.4874462 0.5267047 0.4196873
0.5050834 0.5266902 0.4209465
0.519779 0.5266691 0.4222349
0.5323433 0.5265508 0.4236522
0.5431353 0.5264172 0.4248172
0.5528215 0.5264319 0.4260533
0.5616459 0.5264369 0.4270989
0.5694539 0.5264212 0.4284978
0.5766774 0.5264383 0.4301598
0.5826765 0.5266593 0.4345895
0.5882542 0.5269461 0.4388373
0.5934545 0.5274257 0.4429553
0.5982316 0.5279432 0.4470312
0.3978121 0.5381183 0.4233813
0.4428506 0.5380033 0.4227841
0.4700077 0.5381053 0.4243512
0.4909022 0.5380645 0.4258716
0.5079953 0.5380272 0.4270051
0.5223174 0.5379864 0.4282649
0.534587 0.5379162 0.4294083
0.5452161 0.5379246 0.4303366
0.5545828 0.5377858 0.4316443
0.5631451 0.5378459 0.4327049
0.5708211 0.5378866 0.4336549
0.5779369 0.5378374 0.434885
0.5843334 0.5378762 0.4371469
0.5901057 0.5379892 0.4410953
0.5953155 0.5382688 0.4455042
0.5996438 0.5386167 0.4495091
0.4080954 0.5480419 0.4291241
0.4483986 0.5481867 0.4286545
0.4747315 0.5480773 0.43016
0.4946182 0.5480533 0.4313188
0.5108802 0.5480931 0.4322764
0.5247943 0.548089 0.4334966
0.5366709 0.5480082 0.4348116
0.5468598 0.548072 0.4357953
0.5561329 0.5480654 0.4369071
0.5646341 0.5478873 0.4377207
0.5723619 0.5478941 0.4389486
0.5794784 0.5478938 0.4399234
0.5858766 0.5479431 0.4408972
0.5918123 0.5479603 0.4438644
0.5967693 0.5480409 0.4479519
0.6013145 0.5482447 0.4513907
0.416884 0.557063 0.4347548
0.4545234 0.5570373 0.4340835
0.4790018 0.5570242 0.4355185
0.4975957 0.5572 0.4364928
0.5138178 0.5570858 0.4375763
0.5271546 0.557127 0.4385601
0.5387946 0.5570683 0.4398206
0.5488426 0.5570709 0.4408155
0.5579187 0.5570693 0.4418508
0.5662134 0.5570347 0.4427244
0.5735927 0.5569961 0.4438286
0.5805952 0.5570177 0.4446477
0.5871363 0.5570484 0.4455932
0.5931557 0.5569234 0.446764
0.5982893 0.5569369 0.4501352
0.6028664 0.5570475 0.4535913
0.4248461 0.5653279 0.439695
0.4598081 0.5652664 0.4390848
0.4827382 0.5653396 0.4404901
0.5010338 0.5654004 0.4414621
0.5164557 0.5653802 0.442549
0.5296858 0.5653583 0.4435784
0.54093 0.5653113 0.4446787
0.5506259 0.5653543 0.4455523
0.559455 0.5653796 0.4465827
0.5677742 0.5653358 0.4473631
0.5750637 0.5653416 0.4484504
0.5819675 0.5652292 0.4492238
0.5883134 0.5652174 0.4500446
0.5943516 0.5651897 0.4510039
0.5996523 0.5651573 0.4523456
0.6040196 0.5652179 0.4558824
0.4321476 0.5728936 0.4444146
0.4649684 0.5727345 0.4439373
0.4865321 0.572909 0.445232
0.5041322 0.5729083 0.4462565
0.5191896 0.5729173 0.4473618
0.5321006 0.5728053 0.448246
0.5429941 0.5728512 0.4492557
0.5525904 0.5728551 0.4500087
0.5614345 0.5728193 0.4510582
0.5692528 0.5729139 0.4518484
0.5766596 0.572847 0.452721
0.5832735 0.5727866 0.4535519
0.589366 0.5727613 0.4542924
0.5952445 0.5727202 0.4550868
0.6006802 0.5727848 0.4560811
0.6051735 0.5728555 0.4579739
0.4389274 0.5798894 0.4490185
0.4697081 0.5797157 0.4485925
0.4902092 0.5798947 0.449636
0.5075437 0.5798366 0.4507515
0.5217466 0.5798777 0.4518113
0.5343223 0.5797957 0.4526286
0.5447206 0.5798954 0.4534778
0.554531 0.5798283 0.4544401
0.5630444 0.5798211 0.455239
0.5707728 0.5798405 0.4561014
0.577809 0.5798838 0.4568895
0.5843074 0.5798179 0.4576742
0.5906345 0.579753 0.4584141
0.5961396 0.5797212 0.4591556
0.6018575 0.5796823 0.4599775
0.6063909 0.5797626 0.4614165
0.445239 0.586392 0.4534254
0.4739554 0.5862418 0.4529446
0.4940875 0.5862604 0.4540742
0.5101775 0.5864167 0.4549769
0.5244963 0.5862827 0.4559664
0.5364803 0.5863027 0.456923
0.5468829 0.5862962 0.457727
0.5563868 0.5862731 0.4585823
0.5645432 0.5863204 0.4593738
0.5722418 0.5862709 0.4600831
0.5791389 0.5862868 0.4608717
0.5857281 0.5862535 0.4615934
0.5917587 0.5862042 0.4623009
0.597422 0.5862114 0.4631036
0.6028805 0.5861234 0.4638401
0.6073614 0.586208 0.4652714
0.4501508 0.5914041 0.4573847
0.4771605 0.5914847 0.4568294
0.4968378 0.591363 0.4577507
0.5127292 0.5914304 0.4587131
0.5263413 0.5914651 0.4596425
0.5380387 0.5914621 0.4605317
0.5484673 0.5914007 0.4612584
0.557588 0.5914259 0.4620783
0.5659081 0.5913537 0.4627734
0.5731723 0.5913696 0.4635136
0.580119 0.591404 0.4642074
0.5866244 0.5913323 0.4649572
0.5928429 0.5912687 0.4657401
0.598287 0.5912721 0.4663755
0.6038235 0.5912197 0.4671145
0.6081855 0.5912335 0.4683819
0.2277759 0.2994188 0.4028643
0.3686844 0.2799694 0.4179678
0.4232598 0.2782688 0.4173127
0.4537143 0.2995817 0.4182536
0.4754059 0.3163658 0.4209255
0.4930004 0.328116 0.4241916
0.5072169 0.3400837 0.4279351
0.5194099 0.3499654 0.4316407
0.5298396 0.3587808 0.4354129
0.5391723 0.3662487 0.4389467
0.5477171 0.372943 0.4423612
0.5550547 0.3797428 0.4460464
0.5625545 0.3857478 0.449296
0.5687872 0.3920245 0.4525939
0.5747914 0.3974153 0.4558656
0.5802061 0.4020978 0.459408
0.2606708 0.38382 0.4175525
0.3816443 0.383567 0.4225179
0.4305911 0.3828885 0.4219942
0.4615372 0.3828948 0.4235877
0.4845606 0.3828231 0.4249906
0.5028574 0.3826668 0.4261543
0.5179724 0.3825257 0.4274801
0.5295527 0.3863814 0.4298066
0.5386522 0.392554 0.4335996
0.547385 0.3982304 0.4370899
0.5553625 0.4031278 0.440485
0.5621766 0.4076139 0.4438586
0.5687205 0.4120724 0.4471464
0.5751648 0.4164622 0.450323
0.5808392 0.420919 0.4539582
0.5856549 0.4248175 0.4572119
0.2828904 0.431217 0.4265417
0.393595 0.4310801 0.4278241
0.4372329 0.4303828 0.4270428
0.4663681 0.4304122 0.4286288
0.488296 0.430481 0.4296731
0.5059941 0.4303786 0.4310606
0.5204328 0.4303696 0.4322333
0.5328524 0.4303577 0.4332048
0.5437757 0.4302685 0.4343995
0.5533157 0.4302679 0.4354311
0.5619493 0.4302191 0.436614
0.5694247 0.430734 0.4378161
0.5759482 0.4335138 0.4412636
0.5818228 0.4366095 0.4448576
0.5866888 0.4402125 0.4487567
0.5910019 0.4433945 0.4527609
0.3161478 0.4614354 0.4316703
0.403892 0.46152 0.4328064
0.4436686 0.4611796 0.4322351
0.4709317 0.4608521 0.4335544
0.4918374 0.4608049 0.4346953
0.508973 0.4607283 0.4357385
0.5229529 0.4607243 0.4368995
0.5350205 0.4607055 0.4381471
0.5456296 0.4606774 0.4392414
0.5549685 0.4606697 0.4401705
0.5634323 0.4605946 0.4410906
0.5711524 0.4605636 0.442332
0.5783443 0.4605716 0.4431593
0.5848956 0.4606851 0.4442021
0.5901772 0.4622619 0.4476092
0.5947657 0.4640034 0.4509902
0.3393483 0.4837275 0.4367972
0.4130507 0.483752 0.437879
0.449642 0.4834728 0.4373062
0.4751855 0.4834599 0.4386331
0.4951125 0.4832141 0.439792
0.5117647 0.4831295 0.4407315
0.5254316 0.483113 0.4418969
0.5371794 0.4830889 0.4430754
0.5474942 0.4830879 0.4438146
0.5566466 0.4830393 0.4449893
0.5649092 0.4831125 0.4456986
0.5726836 0.483061 0.4469335
0.5796897 0.4830389 0.4477996
0.5862476 0.483046 0.4485647
0.5920514 0.4833561 0.4499415
0.5967932 0.4844174 0.4536159
0.3580574 0.5014542 0.4418041
0.4213318 0.5015245 0.4426572
0.4552424 0.5012686 0.442297
0.4793757 0.5013103 0.4436886
0.4984675 0.501249 0.4444155
0.5143274 0.5009903 0.4454309
0.5277475 0.5010209 0.4464606
0.5390469 0.501003 0.4474128
0.5492918 0.5009365 0.4485922
0.558347 0.5009539 0.4492255
0.5665604 0.5008936 0.450397
0.5740651 0.500954 0.4511799
0.5809238 0.5009853 0.4519569
0.5873274 0.5009694 0.453063
0.5932978 0.5009989 0.454106
0.5980876 0.5014669 0.4560721
0.3729482 0.5162886 0.4466919
0.4292162 0.5161923 0.4472818
0.460472 0.5160682 0.4469009
0.4833447 0.5161342 0.447973
0.5016601 0.5160856 0.4491857
0.5171217 0.5160506 0.4501199
0.5299273 0.5158015 0.4509663
0.5411594 0.5158466 0.4518161
0.5509716 0.5158312 0.4526427
0.5598608 0.5158531 0.453784
0.5679635 0.515862 0.454443
0.5752248 0.515877 0.4553075
0.5820128 0.5159082 0.4564361
0.5884862 0.5159067 0.4569752
0.5945843 0.5158928 0.4578079
0.5995795 0.5161045 0.4594677
0.3861064 0.528891 0.4509071
0.435898 0.5289796 0.451615
0.4651811 0.5287885 0.4511544
0.4871493 0.5288221 0.4522867
0.5047699 0.5287902 0.4533947
0.5197884 0.5286781 0.4544021
0.5322855 0.5286266 0.4551562
0.5430288 0.5285599 0.4558531
0.5528814 0.5285158 0.45706
0.5616199 0.528544 0.4575915
0.5693194 0.528568 0.4586766
0.5766228 0.528619 0.4591957
0.5833653 0.5285646 0.4601896
0.5896351 0.5286085 0.461219
0.595714 0.5286472 0.4618922
0.6004907 0.5287836 0.4634842
0.3971753 0.5400328 0.4552316
0.4427497 0.5398721 0.4560154
0.4698763 0.5398613 0.4554723
0.4907416 0.5398843 0.4565389
0.5079091 0.5398747 0.4576176
0.5222695 0.539808 0.4583985
0.5345528 0.5397798 0.4593062
0.5450411 0.5397649 0.4600115
0.5545207 0.5396786 0.4606412
0.5631865 0.5396208 0.4617049
0.5708334 0.5396847 0.4622974
0.5780008 0.539687 0.4631209
0.5846189 0.5397292 0.4641184
0.5908403 0.5397636 0.4646729
0.5966712 0.5397338 0.4653799
0.6014691 0.5398712 0.4667898
0.4078731 0.5496633 0.4590418
0.4482968 0.5498915 0.4597484
0.4744754 0.5496341 0.4593537
0.4945494 0.5497164 0.4605348
0.5108111 0.5497237 0.4614956
0.5245686 0.5497085 0.4622267
0.5367691 0.5496688 0.4631193
0.5469544 0.5496736 0.463703
0.5560905 0.5496981 0.4644625
0.5644679 0.549612 0.4653648
0.5723729 0.5495243 0.4659707
0.5795395 0.5495315 0.4667034
0.586125 0.5495603 0.4677814
0.5919842 0.5496167 0.4682403
0.5976779 0.5495749 0.4688427
0.602441 0.549747 0.4702407
0.4164542 0.5586376 0.4629491
0.4542721 0.5586294 0.463488
0.4785896 0.5585234 0.4632759
0.4977942 0.5586148 0.4639837
0.5138199 0.5585247 0.4650664
0.5273603 0.558536 0.4659444
0.5388057 0.5585555 0.4665237
0.5488529 0.5586232 0.467243
0.5579008 0.5585303 0.4682073
0.5661306 0.5585736 0.4686175
0.5737183 0.5584834 0.4696839
0.5807037 0.558443 0.4700773
0.5870072 0.5584809 0.4708395
0.5930395 0.5584527 0.4718107
0.598812 0.5584192 0.4724247
0.6035048 0.5585099 0.4737703
0.4243068 0.5668137 0.4665564
0.4597241 0.5666755 0.4673186
0.482289 0.5668096 0.4666276
0.5010955 0.5666844 0.4678285
0.5163933 0.5667445 0.4684611
0.5293968 0.5667649 0.4692897
0.5407586 0.5666795 0.4701628
0.5508518 0.5666742 0.4708837
0.5596465 0.5667 0.4713795
0.5676059 0.5667192 0.4723716
0.5752855 0.5666681 0.4727772
0.5820723 0.5665087 0.4735737
0.588285 0.566535 0.4743165
0.5940347 0.5665729 0.4747283
0.5997353 0.5665792 0.4755565
0.6044026 0.5666979 0.4767688
0.4318635 0.5742204 0.4699447
0.4645937 0.5741692 0.4705002
0.4865996 0.5740641 0.4703613
0.5044346 0.5741173 0.4709548
0.5191562 0.5741335 0.4718191
0.5317806 0.5741755 0.472629
0.5427523 0.5741445 0.4732443
0.5524622 0.5741344 0.4741937
0.5613089 0.5741509 0.4747782
0.5693623 0.5740843 0.4755825
0.5764046 0.5741243 0.4760388
0.5830696 0.5740715 0.4768861
0.5893848 0.5739722 0.4771766
0.5952008 0.5739571 0.477947
0.6008404 0.5739275 0.4788554
0.6054418 0.5740041 0.4799418
0.439126 0.5809636 0.4736081
0.4690394 0.581118 0.4741284
0.4903684 0.580955 0.4736283
0.507112 0.5810926 0.4744244
0.5220073 0.5809122 0.4752602
0.5339337 0.5810739 0.4760368
0.5448261 0.5810071 0.4765179
0.5543145 0.5810288 0.4773272
0.5628688 0.5810452 0.4780598
0.5706639 0.5809862 0.4785413
0.5778738 0.5809336 0.479268
0.5845495 0.5808812 0.4798715
0.5905681 0.5809362 0.4803195
0.596275 0.5808088 0.48105
0.6017445 0.5807966 0.4817567
0.6063113 0.5809171 0.4829276
0.4457037 0.5872884 0.4766419
0.473632 0.5875073 0.4774716
0.4934311 0.5874861 0.4769128
0.5105433 0.5873289 0.477733
0.5242045 0.5874648 0.4785416
0.5364233 0.5873476 0.4791924
0.5467295 0.5874615 0.4797744
0.5558699 0.5874605 0.480563
0.5644166 0.5873795 0.4811089
0.5721351 0.5873594 0.4817017
0.5792068 0.5872958 0.4823108
0.585591 0.5873145 0.4829866
0.5915355 0.5873654 0.4833572
0.5974161 0.5872549 0.4840621
0.6026269 0.5872118 0.4847482
0.6071672 0.5872952 0.4858868
0.4507641 0.5923097 0.4795351
0.4776079 0.5923912 0.4803007
0.4968347 0.5923755 0.4799552
0.5130149 0.5923678 0.480473
0.5265835 0.5924201 0.4812149
0.5381005 0.5924632 0.4818827
0.5485223 0.5923825 0.4826983
0.5576174 0.5923226 0.483304
0.5658546 0.5923366 0.4836226
0.5734491 0.5923299 0.4845214
0.58021 0.5923314 0.4848092
0.5866734 0.5923191 0.4855915
0.5925667 0.5923007 0.4861191
0.5983136 0.5923183 0.4865263
0.6036407 0.5922617 0.4872705
0.6080331 0.5922883 0.4883165
0.2556193 0.3301562 0.4356007
0.3685092 0.3109344 0.4507028
0.4232087 0.3095826 0.4514065
0.4560185 0.3088976 0.4511
0.4785363 0.32452 0.4513764
0.4961156 0.3365739 0.4527885
0.5100572 0.3479665 0.4548044
0.522043 0.3573953 0.4569551
0.5322554 0.3659228 0.4594278
0.5416421 0.3724241 0.4618589
0.5499083 0.3789375 0.4643265
0.5574787 0.385621 0.4668469
0.5643363 0.3914831 0.469276
0.5708283 0.3972266 0.4720273
0.5766652 0.4023457 0.4744755
0.5817258 0.4070742 0.4772339
0.2823519 0.395295 0.4471585
0.3813958 0.3937728 0.4543037
0.4304408 0.3936718 0.4548978
0.4612443 0.3931471 0.4546044
0.4842893 0.3931592 0.4555712
0.5029104 0.3930863 0.456484
0.5178345 0.3930654 0.457281
0.5306544 0.393029 0.458308
0.5405012 0.396806 0.459847
0.5495105 0.4022939 0.4619122
0.5569293 0.4070335 0.464095
0.5641136 0.4114654 0.4660413
0.5702684 0.4161955 0.4686139
0.5763527 0.4204115 0.4710054
0.5825117 0.4246241 0.473516
0.586741 0.4284074 0.4761739
0.2995187 0.4364651 0.4553899
0.3934093 0.4373182 0.4578744
0.4370835 0.4368688 0.4585367
0.4660574 0.4366086 0.4582019
0.4880814 0.436646 0.4591246
0.5059096 0.4365227 0.4602687
0.5204821 0.4364599 0.4611917
