CinemaCameraBeautifiers/bmpcc6k_Debeautified.cube
LUT_3D_SIZE 6
DOMAIN_MIN 0 0 0
DOMAIN_MAX 1 1 1
TITLE bmpcc6k_Debeautified
-0.0002256887 -0.0001030263 -0.0002623141
0.4299088 -0.003366492 0.00787823
0.849228 -0.006724528 0.01634138
1.252887 -0.006458391 0.02837197
1.675916 -0.01362218 0.03491219
2.068806 -0.01480975 0.04571924
0.08192203 0.4043383 0.05677744
0.4985065 0.4002137 0.06772652
0.9135816 0.3991519 0.07725692
1.326254 0.3957123 0.08368412
1.735504 0.3929321 0.09421674
2.132217 0.3924651 0.1042224
0.1634791 0.8065594 0.1149628
0.5760213 0.8039291 0.1247772
0.9885478 0.8012179 0.1361369
1.402561 0.8009083 0.1422039
1.811351 0.7996616 0.1553147
2.201664 0.8013377 0.1693753
0.2457475 1.212234 0.1722614
0.6572828 1.203292 0.184264
1.068471 1.209083 0.1911263
1.479839 1.206726 0.2021638
1.888425 1.206241 0.2155042
2.285227 1.207684 0.2292581
0.3264717 1.626358 0.2300883
0.7348301 1.617318 0.2394937
1.146224 1.617806 0.2531509
1.560525 1.624041 0.2541251
1.967569 1.615423 0.2749346
2.366551 1.617708 0.2814882
0.4015078 2.025039 0.2881214
0.8123876 2.002918 0.3024765
1.222913 2.009251 0.3133497
1.632218 2.011188 0.3231856
2.047506 2.0131 0.3238185
2.445972 2.009266 0.3366066
-0.001571807 0.07352008 0.3979935
0.4205368 0.06487065 0.3991252
0.8326698 0.06758375 0.4068059
1.246015 0.05985025 0.4145549
1.653942 0.05717718 0.424324
2.047127 0.05760444 0.4386381
0.07890685 0.4752561 0.4495261
0.49597 0.4715528 0.4532494
0.9102426 0.4689676 0.4625244
1.320378 0.4650966 0.4730073
1.734014 0.4617895 0.4840516
2.138169 0.459114 0.4960732
0.1586846 0.8786041 0.5067821
0.5743943 0.8760199 0.5119197
0.9869204 0.873051 0.5215482
1.394442 0.871762 0.5315403
1.80849 0.8697017 0.5397762
2.212361 0.8679442 0.5530768
0.2395907 1.281227 0.5628338
0.6534234 1.281037 0.5698856
1.0645 1.280597 0.5793046
1.47358 1.278268 0.5890649
1.88408 1.277963 0.5966184
2.281308 1.277211 0.6115056
0.3199866 1.689024 0.6184362
0.7308174 1.689378 0.6241354
1.146973 1.690549 0.6350567
1.553222 1.690741 0.6446763
1.962697 1.687642 0.6541112
2.362931 1.687211 0.6663416
0.3985588 2.07523 0.6739666
0.8100963 2.078251 0.6854873
1.2227 2.080827 0.6933185
1.628689 2.079371 0.7011755
2.036064 2.078356 0.7115671
2.434557 2.081311 0.726025
-0.004131963 0.1407107 0.7945118
0.4153118 0.1342888 0.7916644
0.8327001 0.1255817 0.7970113
1.239948 0.1282383 0.8031801
1.643439 0.1324189 0.8111347
2.03928 0.1336956 0.8245036
0.07888789 0.5434666 0.8341579
0.4931183 0.5408036 0.8427254
0.9053846 0.537039 0.8517567
1.313501 0.5346506 0.8631649
1.7271 0.5310556 0.87084
2.13347 0.5250706 0.883855
0.1571007 0.9474413 0.8941807
0.5719357 0.9450084 0.9003553
0.9834586 0.9431736 0.9095963
1.393199 0.9404674 0.9184546
1.803355 0.9390934 0.924595
2.20192 0.9382195 0.937647
0.2384769 1.352996 0.9488318
0.648484 1.352083 0.96043
1.063764 1.349866 0.9657596
1.471398 1.348046 0.9733385
1.879923 1.347035 0.9834431
2.283669 1.347435 0.9947536
0.319785 1.760308 1.007345
0.7268238 1.762701 1.014584
1.143835 1.760658 1.021719
1.55158 1.758203 1.031317
1.959649 1.756493 1.037797
2.361104 1.757884 1.050142
0.3975186 2.148872 1.060031
0.8043286 2.151333 1.068524
1.222097 2.148503 1.082254
1.626173 2.14946 1.091892
2.036894 2.14855 1.095096
2.434403 2.148636 1.107375
-0.001250039 0.2116778 1.17265
0.4125952 0.2046503 1.178157
0.8238692 0.2010166 1.182279
1.239623 0.1879891 1.192705
1.645522 0.1987051 1.19632
2.039324 0.2021738 1.206551
0.07585859 0.6122181 1.223441
0.4903795 0.6089854 1.230694
0.901992 0.6062369 1.23653
1.30816 0.602758 1.243812
1.719326 0.6003931 1.255803
2.119203 0.5995652 1.271285
0.1570375 1.016916 1.279177
0.5667055 1.014732 1.289849
0.9812341 1.012622 1.292609
1.387964 1.010228 1.302265
1.797161 1.007504 1.318839
2.198811 1.007007 1.326388
0.233924 1.424388 1.34055
0.645954 1.422767 1.340405
1.060638 1.42 1.351166
1.467505 1.418772 1.366517
1.875497 1.415689 1.37625
2.275332 1.415197 1.38613
0.3187466 1.83264 1.392919
0.7247154 1.83165 1.399979
1.141317 1.828477 1.416174
1.548393 1.824535 1.416626
1.954255 1.825763 1.429528
2.354758 1.828296 1.4416
0.3960902 2.222432 1.452113
0.7968564 2.224221 1.458503
1.217495 2.21911 1.471221
1.625265 2.219018 1.481909
2.032299 2.216983 1.492221
2.432614 2.218132 1.504034
-0.007700326 0.2793254 1.578971
0.4087676 0.2728963 1.561286
0.8206113 0.2678754 1.564543
1.231158 0.2659286 1.583267
1.648021 0.2516229 1.587876
2.033281 0.2693157 1.60121
0.07546942 0.6808813 1.609626
0.4840792 0.6781086 1.622039
0.9011741 0.6740394 1.63404
1.306949 0.6711482 1.638244
1.711449 0.6689313 1.644575
2.112304 0.6685972 1.664485
0.1578038 1.08537 1.665737
0.5632311 1.085082 1.679538
0.9799917 1.081506 1.686032
1.383613 1.079464 1.698258
1.794665 1.075681 1.712239
2.194174 1.07568 1.721721
0.2397791 1.491257 1.72999
0.6419441 1.491621 1.735218
1.057841 1.48858 1.746061
1.463136 1.48577 1.751552
1.87085 1.484489 1.759269
2.273742 1.485203 1.784261
0.314971 1.903274 1.791146
0.7189209 1.902317 1.795362
1.140511 1.895697 1.801098
1.549903 1.895537 1.811341
1.954902 1.896336 1.824809
2.353193 1.898017 1.833036
0.3961782 2.291075 1.845235
0.792764 2.293915 1.848109
1.213706 2.289687 1.858526
1.623711 2.286886 1.87399
2.028474 2.287538 1.880507
2.431647 2.288431 1.899316
-0.00602713 0.3449695 1.939855
0.3963225 0.3279974 1.94839
0.8210957 0.3330456 1.947853
1.228822 0.328716 1.937249
1.637529 0.3267233 1.948883
2.040762 0.3119026 1.966324
0.07590456 0.7432187 1.978947
0.4817139 0.7417938 1.987243
0.8999298 0.7375683 1.998754
1.305723 0.7345842 1.998254
1.713913 0.7313341 2.012678
2.1065 0.7317436 2.034726
0.1601832 1.149245 2.028755
0.5589687 1.147815 2.045168
0.9771439 1.144646 2.052814
1.383709 1.141541 2.059745
1.791554 1.13909 2.069877
2.191107 1.138355 2.093479
0.2450323 1.555315 2.080643
0.6370397 1.555667 2.10145
1.055133 1.552286 2.114031
1.465241 1.551288 2.113744
1.872511 1.548353 2.120962
2.269015 1.548867 2.146135
0.3193641 1.963826 2.144412
0.7151625 1.966356 2.157524
1.135358 1.962062 2.160373
1.546038 1.958725 2.178683
1.951653 1.958501 2.191739
2.350904 1.962652 2.194585
0.3868673 2.358897 2.214766
0.7938355 2.355844 2.220316
1.210979 2.353105 2.218128
1.619066 2.350417 2.237328
2.032737 2.35117 2.247656
2.430951 2.356793 2.268359
